;FLAVOR:Marlin
;TIME:25244
;Filament used: 18.0841m
;Layer height: 0.2
;MINX:105.853
;MINY:98.335
;MINZ:0.2
;MAXX:194.143
;MAXY:201.665
;MAXZ:45
;Generated with Cura_SteamEngine 4.13.1
M140 S50
M105
M190 S50
M104 S200
M105
M109 S200
M82 ;absolute extrusion mode
M201 X500.00 Y500.00 Z100.00 E5000.00 ;Setup machine max acceleration
M203 X500.00 Y500.00 Z10.00 E50.00 ;Setup machine max feedrate
M204 P500.00 R1000.00 T500.00 ;Setup Print/Retract/Travel acceleration
M205 X8.00 Y8.00 Z0.40 E5.00 ;Setup Jerk
M220 S100 ;Reset Feedrate
M221 S100 ;Reset Flowrate

G28 ;Home
G29 ;Auto bed Level

G92 E0 ;Reset Extruder
G1 Z2.0 F3000 ;Move Z Axis up
G1 X10.1 Y20 Z0.28 F5000.0 ;Move to start position
G1 X10.1 Y200.0 Z0.28 F1500.0 E15 ;Draw the first line
G1 X10.4 Y200.0 Z0.28 F5000.0 ;Move to side a little
G1 X10.4 Y20 Z0.28 F1500.0 E30 ;Draw the second line
G92 E0 ;Reset Extruder
G1 Z2.0 F3000 ;Move Z Axis up

G92 E0
G92 E0
G1 F2700 E-5
;LAYER_COUNT:225
;LAYER:0
M107
G0 F6000 X128.101 Y151.966 Z0.2
;TYPE:SKIRT
G1 F2700 E0
G1 F1200 X127.788 Y152.282 E0.01479
G1 X127.374 Y152.754 E0.03568
G1 X127.042 Y153.194 E0.05401
G1 X126.888 Y153.453 E0.06403
G1 X126.695 Y153.81 E0.07753
G1 X126.458 Y154.342 E0.0969
G1 X126.313 Y154.749 E0.11127
G1 X126.149 Y155.371 E0.13266
G1 X126.051 Y155.933 E0.15164
G1 X125.996 Y156.481 E0.16996
G1 X126.009 Y156.912 E0.1843
G1 X126.052 Y157.411 E0.20096
G1 X126.132 Y157.925 E0.21826
G1 X126.215 Y158.291 E0.23074
G1 X126.463 Y159.026 E0.25654
G1 X126.637 Y159.408 E0.2705
G1 X126.842 Y159.797 E0.28513
G1 X127.095 Y160.216 E0.30141
G1 X127.413 Y160.666 E0.31973
G1 X127.661 Y160.939 E0.332
G1 X127.982 Y161.26 E0.3471
G1 X128.494 Y161.689 E0.36932
G1 X128.898 Y161.971 E0.3857
G1 X129.454 Y162.293 E0.40707
G1 X129.796 Y162.454 E0.41965
G1 X130.351 Y162.664 E0.43938
G1 X130.814 Y162.799 E0.45542
G1 X131.353 Y162.915 E0.47376
G1 X131.67 Y162.945 E0.48435
G1 X132.107 Y162.969 E0.49891
G1 X132.54 Y162.968 E0.51331
G1 X132.945 Y162.944 E0.5268
G1 X133.491 Y162.872 E0.54512
G1 X133.781 Y162.8 E0.55506
G1 X134.204 Y162.677 E0.56971
G1 X134.765 Y162.465 E0.58966
G1 X135.227 Y162.247 E0.60665
G1 X135.849 Y161.877 E0.63072
G1 X136.192 Y161.626 E0.64486
G1 X136.714 Y161.165 E0.66802
G1 X136.99 Y160.872 E0.68141
G1 X137.335 Y160.449 E0.69956
G1 X137.575 Y160.107 E0.71346
G1 X137.89 Y159.567 E0.73425
G1 X138.114 Y159.1 E0.75148
G1 X138.316 Y158.588 E0.76979
G1 X138.403 Y158.257 E0.78117
G1 X138.502 Y157.797 E0.79682
G1 X138.585 Y157.119 E0.81954
G1 X138.6 Y156.653 E0.83504
G1 X138.578 Y156.103 E0.85335
G1 X138.536 Y155.827 E0.86264
G1 X138.451 Y155.376 E0.8779
G1 X138.348 Y154.959 E0.89219
G1 X138.231 Y154.58 E0.90538
G1 X137.977 Y153.959 E0.9277
G1 X137.799 Y153.614 E0.94061
G1 X137.52 Y153.155 E0.95847
G1 X137.304 Y152.851 E0.97088
G1 X136.888 Y152.36 E0.99228
G1 X136.606 Y152.079 E1.00552
G1 X136.161 Y151.699 E1.02498
G1 X135.76 Y151.407 E1.04148
G1 X135.292 Y151.116 E1.05981
G1 X134.904 Y150.939 E1.074
G1 X134.453 Y150.763 E1.0901
G1 X133.994 Y150.616 E1.10613
G1 X133.646 Y150.529 E1.11806
G1 X133.108 Y150.435 E1.13623
G1 X132.645 Y150.388 E1.1517
G1 X132.094 Y150.373 E1.17004
G1 X131.734 Y150.406 E1.18206
G1 X131.363 Y150.458 E1.19452
G1 X131.081 Y150.508 E1.20405
G1 X130.691 Y150.593 E1.21732
G1 X129.915 Y150.852 E1.24453
G1 X129.49 Y151.047 E1.26008
G1 X128.965 Y151.34 E1.28008
G1 X128.535 Y151.627 E1.29728
G1 X128.101 Y151.966 E1.31559
G0 F6000 X128.347 Y152.282
G1 F1200 X128.089 Y152.546 E1.32787
G1 X127.675 Y153.018 E1.34875
G1 X127.24 Y153.643 E1.37408
G1 X127.047 Y154 E1.38758
G1 X126.835 Y154.476 E1.40491
G1 X126.69 Y154.883 E1.41928
G1 X126.544 Y155.44 E1.43843
G1 X126.446 Y156.002 E1.4574
G1 X126.396 Y156.521 E1.47475
G1 X126.408 Y156.878 E1.48663
G1 X126.451 Y157.377 E1.50329
G1 X126.522 Y157.837 E1.51877
G1 X126.605 Y158.203 E1.53125
G1 X126.827 Y158.86 E1.55431
G1 X127.001 Y159.242 E1.56828
G1 X127.184 Y159.59 E1.58135
G1 X127.437 Y160.009 E1.59763
G1 X127.74 Y160.434 E1.61499
G1 X127.944 Y160.656 E1.62502
G1 X128.265 Y160.977 E1.64012
G1 X128.723 Y161.361 E1.66
G1 X129.127 Y161.643 E1.67638
G1 X129.625 Y161.931 E1.69552
G1 X129.967 Y162.092 E1.70809
G1 X130.463 Y162.28 E1.72573
G1 X130.926 Y162.415 E1.74177
G1 X131.692 Y162.546 E1.76762
G1 X132.129 Y162.57 E1.78218
G1 X132.516 Y162.569 E1.79505
G1 X132.921 Y162.545 E1.80854
G1 X133.669 Y162.416 E1.83379
G1 X134.092 Y162.293 E1.84844
G1 X134.594 Y162.103 E1.86629
G1 X135.056 Y161.885 E1.88328
G1 X135.613 Y161.554 E1.90483
G1 X135.956 Y161.303 E1.91897
G1 X136.423 Y160.89 E1.93971
G1 X136.699 Y160.597 E1.95309
G1 X137.007 Y160.219 E1.96931
G1 X137.247 Y159.877 E1.98321
G1 X137.53 Y159.394 E2.00183
G1 X137.754 Y158.927 E2.01905
G1 X137.942 Y158.442 E2.03635
G1 X138.012 Y158.172 E2.04563
G1 X138.111 Y157.712 E2.06128
G1 X138.185 Y157.106 E2.08159
G1 X138.2 Y156.64 E2.09709
G1 X138.143 Y155.901 E2.12175
G1 X138.058 Y155.45 E2.13701
G1 X137.966 Y155.077 E2.14979
G1 X137.849 Y154.698 E2.16298
G1 X137.622 Y154.142 E2.18296
G1 X137.444 Y153.797 E2.19587
G1 X137.194 Y153.387 E2.21184
G1 X136.978 Y153.083 E2.22424
G1 X136.606 Y152.644 E2.24338
G1 X136.324 Y152.363 E2.25662
G1 X135.925 Y152.022 E2.27408
G1 X135.524 Y151.73 E2.29058
G1 X135.081 Y151.457 E2.30789
G1 X134.759 Y151.312 E2.31963
G1 X134.308 Y151.136 E2.33573
G1 X133.897 Y151.005 E2.35008
G1 X133.549 Y150.918 E2.36201
G1 X133.067 Y150.833 E2.37829
G1 X132.604 Y150.786 E2.39377
G1 X132.083 Y150.774 E2.4111
G1 X131.789 Y150.802 E2.42092
G1 X131.418 Y150.854 E2.43339
G1 X131.166 Y150.899 E2.4419
G1 X130.776 Y150.984 E2.45518
G1 X130.082 Y151.216 E2.47951
G1 X129.657 Y151.411 E2.49507
G1 X129.188 Y151.673 E2.51293
G1 X128.758 Y151.96 E2.53013
G1 X128.347 Y152.282 E2.54749
G0 F6000 X128.596 Y152.597
G1 F1200 X128.39 Y152.81 E2.55735
G1 X127.976 Y153.282 E2.57823
G1 X127.592 Y153.833 E2.60057
G1 X127.399 Y154.19 E2.61407
G1 X127.212 Y154.61 E2.62936
G1 X127.067 Y155.017 E2.64373
G1 X126.938 Y155.509 E2.66065
G1 X126.84 Y156.071 E2.67962
G1 X126.795 Y156.558 E2.69589
G1 X126.806 Y156.844 E2.70541
G1 X126.849 Y157.343 E2.72206
G1 X126.912 Y157.748 E2.7357
G1 X126.995 Y158.114 E2.74818
G1 X127.191 Y158.695 E2.76857
G1 X127.365 Y159.077 E2.78254
G1 X127.527 Y159.384 E2.79408
G1 X127.78 Y159.803 E2.81036
G1 X128.227 Y160.373 E2.83445
G1 X128.548 Y160.694 E2.84955
G1 X128.952 Y161.033 E2.86709
G1 X129.356 Y161.315 E2.88348
G1 X129.795 Y161.569 E2.90035
G1 X130.137 Y161.73 E2.91292
G1 X130.575 Y161.896 E2.9285
G1 X131.038 Y162.031 E2.94454
G1 X131.713 Y162.146 E2.96731
G1 X132.15 Y162.17 E2.98187
G1 X132.492 Y162.17 E2.99325
G1 X132.897 Y162.146 E3.00674
G1 X133.558 Y162.032 E3.02905
G1 X133.981 Y161.909 E3.0437
G1 X134.423 Y161.741 E3.05943
G1 X134.885 Y161.523 E3.07642
G1 X135.377 Y161.231 E3.09545
G1 X135.72 Y160.98 E3.10958
G1 X136.132 Y160.616 E3.12787
G1 X136.408 Y160.323 E3.14126
G1 X136.68 Y159.989 E3.15558
G1 X136.92 Y159.647 E3.16948
G1 X137.169 Y159.221 E3.18589
G1 X137.393 Y158.754 E3.20312
G1 X137.621 Y158.088 E3.22653
G1 X137.72 Y157.628 E3.24218
G1 X137.785 Y157.094 E3.26007
G1 X137.8 Y156.628 E3.27558
G1 X137.75 Y155.975 E3.29736
G1 X137.665 Y155.524 E3.31263
G1 X137.584 Y155.195 E3.3239
G1 X137.467 Y154.816 E3.33709
G1 X137.266 Y154.325 E3.35474
G1 X137.088 Y153.98 E3.36765
G1 X136.868 Y153.618 E3.38174
G1 X136.652 Y153.314 E3.39414
G1 X136.324 Y152.927 E3.41101
G1 X136.042 Y152.646 E3.42426
G1 X135.69 Y152.346 E3.43964
G1 X135.289 Y152.054 E3.45614
G1 X134.871 Y151.799 E3.47242
G1 X134.614 Y151.684 E3.48179
G1 X134.163 Y151.508 E3.49789
G1 X133.8 Y151.393 E3.51055
G1 X133.452 Y151.306 E3.52248
G1 X133.027 Y151.231 E3.53684
G1 X132.564 Y151.184 E3.55232
G1 X131.845 Y151.198 E3.57624
G1 X131.474 Y151.25 E3.5887
G1 X131.251 Y151.29 E3.59623
G1 X130.861 Y151.375 E3.60951
G1 X130.249 Y151.579 E3.63096
G1 X129.824 Y151.774 E3.64652
G1 X129.41 Y152.006 E3.6623
G1 X128.98 Y152.293 E3.6795
G1 X128.596 Y152.597 E3.69578
G0 F6000 X128.69 Y153.074
G1 F1200 X128.276 Y153.546 E3.71667
G1 X127.944 Y154.024 E3.73602
G1 X127.751 Y154.381 E3.74952
G1 X127.589 Y154.744 E3.76274
G1 X127.444 Y155.151 E3.77711
G1 X127.332 Y155.577 E3.79176
G1 X127.234 Y156.139 E3.81074
G1 X127.205 Y156.809 E3.83304
G1 X127.248 Y157.308 E3.8497
G1 X127.302 Y157.66 E3.86155
G1 X127.385 Y158.026 E3.87403
G1 X127.555 Y158.529 E3.89169
G1 X127.729 Y158.911 E3.90565
G1 X127.869 Y159.177 E3.91565
G1 X128.122 Y159.596 E3.93193
G1 X128.51 Y160.09 E3.95282
G1 X128.831 Y160.411 E3.96792
G1 X129.181 Y160.705 E3.98312
G1 X129.585 Y160.987 E3.99951
G1 X129.966 Y161.207 E4.01414
G1 X130.308 Y161.368 E4.02671
G1 X130.687 Y161.512 E4.0402
G1 X131.15 Y161.647 E4.05624
G1 X131.735 Y161.747 E4.07598
G1 X132.172 Y161.771 E4.09053
G1 X132.469 Y161.77 E4.10041
G1 X132.874 Y161.746 E4.11391
G1 X133.446 Y161.648 E4.13321
G1 X133.869 Y161.525 E4.14786
G1 X134.253 Y161.379 E4.16152
G1 X134.715 Y161.161 E4.17852
G1 X135.14 Y160.908 E4.19497
G1 X135.483 Y160.657 E4.2091
G1 X135.841 Y160.342 E4.22496
G1 X136.117 Y160.049 E4.23835
G1 X136.352 Y159.76 E4.25074
G1 X136.592 Y159.418 E4.26464
G1 X136.808 Y159.048 E4.27889
G1 X137.032 Y158.581 E4.29611
G1 X137.23 Y158.004 E4.3164
G1 X137.329 Y157.544 E4.33205
G1 X137.386 Y157.081 E4.34757
G1 X137.401 Y156.615 E4.36307
G1 X137.357 Y156.049 E4.38196
G1 X137.272 Y155.598 E4.39722
G1 X137.201 Y155.313 E4.40699
G1 X137.084 Y154.934 E4.42018
G1 X136.911 Y154.509 E4.43544
G1 X136.733 Y154.164 E4.44836
G1 X136.541 Y153.85 E4.4606
G1 X136.325 Y153.546 E4.473
G1 X136.041 Y153.21 E4.48763
G1 X135.759 Y152.929 E4.50088
G1 X135.454 Y152.669 E4.51421
G1 X135.053 Y152.377 E4.5307
G1 X134.468 Y152.057 E4.55288
G1 X134.017 Y151.881 E4.56898
G1 X133.703 Y151.781 E4.57994
G1 X133.355 Y151.694 E4.59188
G1 X132.987 Y151.629 E4.6043
G1 X132.524 Y151.582 E4.61978
G1 X131.9 Y151.594 E4.64054
G1 X131.529 Y151.646 E4.653
G1 X131.336 Y151.681 E4.65952
G1 X130.946 Y151.766 E4.6728
G1 X130.416 Y151.943 E4.69139
G1 X129.991 Y152.138 E4.70694
G1 X129.632 Y152.338 E4.72061
G1 X129.202 Y152.625 E4.7378
G1 X128.69 Y153.074 E4.76045
G0 F6000 X128.991 Y153.337
G1 F1200 X128.577 Y153.809 E4.78133
G1 X128.296 Y154.214 E4.79773
G1 X128.103 Y154.571 E4.81123
G1 X127.966 Y154.879 E4.82244
G1 X127.821 Y155.286 E4.83681
G1 X127.726 Y155.646 E4.84919
G1 X127.628 Y156.208 E4.86817
G1 X127.603 Y156.775 E4.88704
G1 X127.646 Y157.274 E4.9037
G1 X127.692 Y157.572 E4.91373
G1 X127.775 Y157.938 E4.92621
G1 X127.919 Y158.363 E4.94114
G1 X128.093 Y158.745 E4.9551
G1 X128.212 Y158.97 E4.96356
G1 X128.465 Y159.389 E4.97984
G1 X128.792 Y159.808 E4.99752
G1 X129.113 Y160.129 E5.01262
G1 X129.41 Y160.377 E5.02549
G1 X129.814 Y160.659 E5.04188
G1 X130.136 Y160.845 E5.05424
G1 X130.478 Y161.006 E5.06682
G1 X130.799 Y161.128 E5.07824
G1 X131.262 Y161.263 E5.09428
G1 X131.757 Y161.348 E5.11098
G1 X132.194 Y161.372 E5.12554
G1 X132.445 Y161.371 E5.13389
G1 X132.85 Y161.347 E5.14738
G1 X133.334 Y161.264 E5.16372
G1 X133.757 Y161.141 E5.17837
G1 X134.082 Y161.018 E5.18993
G1 X134.544 Y160.8 E5.20692
G1 X134.904 Y160.585 E5.22086
G1 X135.247 Y160.334 E5.235
G1 X135.549 Y160.067 E5.24841
G1 X135.825 Y159.774 E5.26179
G1 X136.025 Y159.53 E5.27229
G1 X136.265 Y159.188 E5.28618
G1 X136.448 Y158.875 E5.29824
G1 X136.672 Y158.408 E5.31547
G1 X136.839 Y157.92 E5.33263
G1 X136.938 Y157.46 E5.34828
G1 X136.986 Y157.068 E5.36141
G1 X137.001 Y156.602 E5.37692
G1 X136.964 Y156.124 E5.39286
G1 X136.879 Y155.673 E5.40813
G1 X136.819 Y155.431 E5.41642
G1 X136.702 Y155.052 E5.42961
G1 X136.555 Y154.692 E5.44255
G1 X136.377 Y154.347 E5.45546
G1 X136.215 Y154.082 E5.46579
G1 X135.999 Y153.778 E5.47819
G1 X135.759 Y153.494 E5.49056
G1 X135.477 Y153.213 E5.5038
G1 X135.219 Y152.993 E5.51508
G1 X134.818 Y152.701 E5.53158
G1 X134.323 Y152.43 E5.55035
G1 X133.872 Y152.254 E5.56645
G1 X133.606 Y152.169 E5.57574
G1 X133.258 Y152.082 E5.58767
G1 X132.946 Y152.027 E5.5982
G1 X132.483 Y151.98 E5.61368
G1 X131.956 Y151.99 E5.63121
G1 X131.585 Y152.042 E5.64367
G1 X131.422 Y152.071 E5.64918
G1 X131.032 Y152.156 E5.66246
G1 X130.583 Y152.306 E5.6782
G1 X130.158 Y152.501 E5.69375
G1 X129.854 Y152.671 E5.70534
G1 X129.424 Y152.958 E5.72253
G1 X128.991 Y153.337 E5.74167
G0 F6000 X129.292 Y153.601
G1 F1200 X128.878 Y154.073 E5.76256
G1 X128.648 Y154.404 E5.77596
G1 X128.455 Y154.761 E5.78946
G1 X128.342 Y155.013 E5.79864
G1 X128.197 Y155.42 E5.81301
G1 X128.12 Y155.715 E5.82316
G1 X128.022 Y156.277 E5.84213
G1 X128.002 Y156.741 E5.85758
G1 X128.045 Y157.24 E5.87424
G1 X128.083 Y157.483 E5.88242
G1 X128.166 Y157.849 E5.8949
G1 X128.283 Y158.197 E5.90711
G1 X128.457 Y158.579 E5.92107
G1 X128.554 Y158.763 E5.92799
G1 X128.807 Y159.182 E5.94427
G1 X129.075 Y159.525 E5.95875
G1 X129.396 Y159.846 E5.97384
G1 X129.639 Y160.049 E5.98438
G1 X130.043 Y160.331 E6.00076
G1 X130.306 Y160.484 E6.01088
G1 X130.648 Y160.645 E6.02345
G1 X130.911 Y160.744 E6.0328
G1 X131.374 Y160.879 E6.04884
G1 X131.779 Y160.948 E6.06251
G1 X132.216 Y160.972 E6.07706
G1 X132.421 Y160.972 E6.08388
G1 X132.826 Y160.948 E6.09738
G1 X133.223 Y160.879 E6.11078
G1 X133.646 Y160.756 E6.12543
G1 X133.911 Y160.656 E6.13485
G1 X134.373 Y160.438 E6.15184
G1 X134.668 Y160.263 E6.16325
G1 X135.011 Y160.012 E6.17739
G1 X135.258 Y159.793 E6.18837
G1 X135.534 Y159.5 E6.20175
G1 X135.697 Y159.3 E6.21033
G1 X135.937 Y158.958 E6.22423
G1 X136.087 Y158.702 E6.2341
G1 X136.311 Y158.235 E6.25133
G1 X136.448 Y157.836 E6.26536
G1 X136.547 Y157.376 E6.28101
G1 X136.586 Y157.055 E6.29176
G1 X136.601 Y156.589 E6.30727
G1 X136.571 Y156.198 E6.32031
G1 X136.486 Y155.747 E6.33558
G1 X136.437 Y155.549 E6.34236
G1 X136.32 Y155.17 E6.35555
G1 X136.2 Y154.876 E6.36612
G1 X136.022 Y154.531 E6.37903
G1 X135.889 Y154.313 E6.38752
G1 X135.673 Y154.009 E6.39992
G1 X135.477 Y153.777 E6.41003
G1 X135.195 Y153.496 E6.42327
G1 X134.984 Y153.316 E6.43249
G1 X134.583 Y153.024 E6.44899
G1 X134.177 Y152.802 E6.46438
G1 X133.726 Y152.626 E6.48048
G1 X133.509 Y152.557 E6.48806
G1 X133.161 Y152.47 E6.49999
G1 X132.906 Y152.425 E6.5086
G1 X132.443 Y152.378 E6.52408
G1 X132.011 Y152.386 E6.53845
G1 X131.64 Y152.438 E6.55091
G1 X131.507 Y152.462 E6.5554
G1 X131.117 Y152.547 E6.56868
G1 X130.749 Y152.67 E6.58159
G1 X130.324 Y152.865 E6.59714
G1 X130.076 Y153.004 E6.60659
G1 X129.646 Y153.291 E6.62379
G1 X129.292 Y153.601 E6.63944
G0 F6000 X129.592 Y153.865
G1 F1200 X129.178 Y154.337 E6.66032
G1 X128.999 Y154.594 E6.67074
G1 X128.806 Y154.951 E6.68424
G1 X128.719 Y155.147 E6.69137
G1 X128.574 Y155.554 E6.70574
G1 X128.514 Y155.784 E6.71364
G1 X128.416 Y156.346 E6.73262
G1 X128.4 Y156.706 E6.7446
G1 X128.443 Y157.205 E6.76126
G1 X128.473 Y157.395 E6.76766
G1 X128.556 Y157.761 E6.78014
G1 X128.647 Y158.031 E6.78962
G1 X128.821 Y158.413 E6.80358
G1 X128.897 Y158.557 E6.809
G1 X129.15 Y158.976 E6.82528
G1 X129.358 Y159.242 E6.83651
G1 X129.679 Y159.563 E6.85161
G1 X129.868 Y159.721 E6.8598
G1 X130.272 Y160.003 E6.87619
G1 X130.477 Y160.122 E6.88407
G1 X130.819 Y160.283 E6.89664
G1 X131.023 Y160.36 E6.90389
G1 X131.486 Y160.495 E6.91993
G1 X131.801 Y160.549 E6.93056
G1 X132.238 Y160.573 E6.94512
G1 X132.398 Y160.573 E6.95044
G1 X132.803 Y160.549 E6.96394
G1 X133.111 Y160.495 E6.97434
G1 X133.534 Y160.372 E6.98899
G1 X133.74 Y160.294 E6.99632
G1 X134.202 Y160.076 E7.01331
G1 X134.432 Y159.94 E7.02219
G1 X134.775 Y159.689 E7.03633
G1 X134.967 Y159.519 E7.04486
G1 X135.243 Y159.226 E7.05825
G1 X135.37 Y159.07 E7.06494
G1 X135.61 Y158.728 E7.07883
G1 X135.726 Y158.529 E7.0865
G1 X135.95 Y158.062 E7.10372
G1 X136.057 Y157.752 E7.11463
G1 X136.156 Y157.292 E7.13028
G1 X136.186 Y157.042 E7.13865
G1 X136.201 Y156.576 E7.15416
G1 X136.178 Y156.272 E7.1643
G1 X136.093 Y155.821 E7.17957
G1 X136.055 Y155.667 E7.18484
G1 X135.938 Y155.288 E7.19803
G1 X135.844 Y155.059 E7.20627
G1 X135.666 Y154.714 E7.21918
G1 X135.563 Y154.545 E7.22576
G1 X135.347 Y154.241 E7.23817
G1 X135.194 Y154.06 E7.24605
G1 X134.912 Y153.779 E7.25929
G1 X134.748 Y153.639 E7.26646
G1 X134.347 Y153.347 E7.28296
G1 X134.032 Y153.175 E7.2949
G1 X133.581 Y152.999 E7.311
G1 X133.412 Y152.945 E7.3169
G1 X133.064 Y152.858 E7.32883
