;FLAVOR:Marlin
;TIME:25222
;Filament used: 22.611m
;Layer height: 0.2
;MINX:130.22
;MINY:79.999
;MINZ:0.2
;MAXX:169.78
;MAXY:219.999
;MAXZ:37.8
;Generated with Cura_SteamEngine 4.13.1
M140 S60
M105
M190 S60
M104 S200
M105
M109 S200
M82 ;absolute extrusion mode
G28 ; home all axes
 M117 Purge extruder
 G92 E0 ; reset extruder
 G1 Z1.0 F3000 ; move z up little to prevent scratching of surface
 G1 X2 Y20 Z0.3 F5000.0 ; move to start-line position
 G1 X2 Y200.0 Z0.3 F1500.0 E15 ; draw 1st line
 G1 X2 Y200.0 Z0.4 F5000.0 ; move to side a little
 G1 X2 Y20 Z0.4 F1500.0 E30 ; draw 2nd line
 G92 E0 ; reset extruder
 G1 Z1.0 F3000 ; move z up little to prevent scratching of surface
G92 E0
G92 E0
G1 F1500 E-2
;LAYER_COUNT:188
;LAYER:0
M107
G1 F300 Z0.4
G0 F6000 X147.492 Y84.18 Z0.4
;TYPE:SKIRT
G1 F300 Z0.2
G1 F1500 E0
G1 F1200 X152.508 Y84.18 E0.18352
G1 X152.508 Y215.82 E4.99972
G1 X147.492 Y215.82 E5.18323
G1 X147.492 Y84.18 E9.99943
G0 F6000 X147.052 Y83.74
G1 F1200 X152.948 Y83.74 E10.21515
G1 X152.948 Y216.26 E15.06354
G1 X147.052 Y216.26 E15.27925
G1 X147.052 Y83.74 E20.12765
G0 F6000 X146.612 Y83.3
G1 F1200 X153.388 Y83.3 E20.37556
G1 X153.388 Y216.7 E25.25615
G1 X146.612 Y216.7 E25.50406
G1 X146.612 Y83.3 E30.38465
G0 F6000 X146.172 Y82.86
G1 F1200 X153.828 Y82.86 E30.66475
G1 X153.828 Y217.14 E35.57754
G1 X146.172 Y217.14 E35.85765
G1 X146.172 Y82.86 E40.77043
G0 F6000 X145.732 Y82.42
G1 F1200 X154.268 Y82.42 E41.08273
G1 X154.268 Y217.58 E46.02772
G1 X145.732 Y217.58 E46.34002
G1 X145.732 Y82.42 E51.285
G0 F6000 X145.292 Y81.98
G1 F1200 X154.708 Y81.98 E51.62949
G1 X154.708 Y218.02 E56.60667
G1 X145.292 Y218.02 E56.95117
G1 X145.292 Y81.98 E61.92835
G0 F6000 X144.852 Y81.54
G1 F1200 X155.148 Y81.54 E62.30504
G1 X155.148 Y218.46 E67.31442
G1 X144.852 Y218.46 E67.69111
G1 X144.852 Y81.54 E72.70048
G0 F6000 X144.412 Y81.1
G1 F1200 X155.588 Y81.1 E73.10937
G1 X155.588 Y218.9 E78.15094
G1 X144.412 Y218.9 E78.55983
G1 X144.412 Y81.1 E83.6014
G0 F6000 X143.972 Y80.66
G1 F1200 X156.028 Y80.66 E84.04248
G1 X156.028 Y219.34 E89.11625
G1 X143.972 Y219.34 E89.55733
G1 X143.972 Y80.66 E94.6311
G0 F6000 X143.532 Y80.22
G1 F1200 X156.468 Y80.22 E95.10438
G1 X156.468 Y219.78 E100.21034
G1 X143.532 Y219.78 E100.68362
G1 X143.532 Y80.22 E105.78958
G1 F1500 E103.78958
G1 F300 Z0.4
G0 F6000 X135.645 Y99.242 Z0.4
G1 F300 Z0.2
G1 F1500 E105.78958
G1 F1200 X135.86 Y99.498 E105.80181
G1 X135.981 Y99.825 E105.81457
G1 X135.981 Y100.165 E105.82701
G1 X135.865 Y100.491 E105.83967
G1 X135.643 Y100.761 E105.85246
G1 X135.336 Y100.937 E105.8654
G1 X135.006 Y100.996 E105.87767
G1 X134.654 Y100.933 E105.89075
G1 X134.355 Y100.758 E105.90343
G1 X134.14 Y100.502 E105.91566
G1 X134.021 Y100.183 E105.92811
G1 X134.018 Y99.84 E105.94066
G1 X134.135 Y99.509 E105.95351
G1 X134.357 Y99.239 E105.9663
G1 X134.664 Y99.063 E105.97924
G1 X134.994 Y99.004 E105.99151
G1 X135.346 Y99.067 E106.00459
G1 X135.645 Y99.242 E106.01726
G0 F6000 X135.276 Y99.521
G1 F1200 X135.478 Y99.72 E106.02764
G1 X135.555 Y99.995 E106.03809
G1 X135.479 Y100.276 E106.04874
G1 X135.28 Y100.478 E106.05911
G1 X135.005 Y100.555 E106.06956
G1 X134.724 Y100.479 E106.08021
G1 X134.522 Y100.28 E106.09058
G1 X134.446 Y99.992 E106.10148
G1 X134.521 Y99.724 E106.11166
G1 X134.72 Y99.522 E106.12204
G1 X134.995 Y99.445 E106.13249
G1 X135.276 Y99.521 E106.14314
G0 F6000 X135.096 Y99.941
G1 F1200 X135.1 Y100.049 E106.14709
G1 X135.009 Y100.113 E106.15116
G1 X134.904 Y100.058 E106.1555
G1 X134.9 Y99.95 E106.15945
G1 X134.991 Y99.887 E106.1635
G1 X135.096 Y99.941 E106.16782
G1 F1500 E104.16782
G1 F300 Z0.4
G0 F6000 X164.357 Y99.239 Z0.4
G1 F300 Z0.2
G1 F1500 E106.16782
G1 F1200 X164.664 Y99.063 E106.18077
G1 X164.994 Y99.004 E106.19303
G1 X165.346 Y99.067 E106.20611
G1 X165.645 Y99.242 E106.21879
G1 X165.86 Y99.498 E106.23102
G1 X165.981 Y99.825 E106.24378
G1 X165.981 Y100.165 E106.25622
G1 X165.865 Y100.491 E106.26888
G1 X165.643 Y100.761 E106.28167
G1 X165.336 Y100.937 E106.29461
G1 X165.006 Y100.996 E106.30688
G1 X164.654 Y100.933 E106.31996
G1 X164.355 Y100.758 E106.33263
G1 X164.14 Y100.502 E106.34487
G1 X164.021 Y100.183 E106.35732
G1 X164.018 Y99.84 E106.36987
G1 X164.135 Y99.509 E106.38272
G1 X164.357 Y99.239 E106.3955
G0 F6000 X164.521 Y99.724
G1 F1200 X164.72 Y99.522 E106.40588
G1 X164.995 Y99.445 E106.41633
G1 X165.276 Y99.521 E106.42698
G1 X165.478 Y99.72 E106.43735
G1 X165.555 Y99.995 E106.4478
G1 X165.479 Y100.276 E106.45845
G1 X165.28 Y100.478 E106.46882
G1 X165.005 Y100.555 E106.47927
G1 X164.724 Y100.479 E106.48992
G1 X164.522 Y100.28 E106.5003
G1 X164.446 Y99.992 E106.51119
G1 X164.521 Y99.724 E106.52138
G0 F6000 X164.9 Y99.95
G1 F1200 X164.991 Y99.887 E106.52543
G1 X165.096 Y99.941 E106.52975
G1 X165.1 Y100.049 E106.5337
G1 X165.009 Y100.113 E106.53777
G1 X164.904 Y100.058 E106.54211
G1 X164.9 Y99.95 E106.54606
G1 F1500 E104.54606
G1 F300 Z0.4
G0 F6000 X164.664 Y179.063 Z0.4
G1 F300 Z0.2
G1 F1500 E106.54606
G1 F1200 X164.994 Y179.004 E106.55833
G1 X165.346 Y179.067 E106.57141
G1 X165.645 Y179.242 E106.58408
G1 X165.86 Y179.498 E106.59631
G1 X165.981 Y179.825 E106.60907
G1 X165.981 Y180.165 E106.62151
G1 X165.865 Y180.491 E106.63417
G1 X165.643 Y180.761 E106.64696
G1 X165.336 Y180.937 E106.65991
G1 X165.006 Y180.996 E106.67217
G1 X164.654 Y180.933 E106.68525
G1 X164.355 Y180.758 E106.69793
G1 X164.14 Y180.502 E106.71016
G1 X164.021 Y180.183 E106.72262
G1 X164.018 Y179.84 E106.73517
G1 X164.135 Y179.509 E106.74801
G1 X164.357 Y179.239 E106.7608
G1 X164.664 Y179.063 E106.77374
G0 F6000 X164.995 Y179.445
G1 F1200 X165.276 Y179.521 E106.7844
G1 X165.478 Y179.72 E106.79477
G1 X165.555 Y179.995 E106.80522
G1 X165.479 Y180.276 E106.81587
G1 X165.28 Y180.478 E106.82624
G1 X165.005 Y180.555 E106.83669
G1 X164.724 Y180.479 E106.84734
G1 X164.522 Y180.28 E106.85771
G1 X164.446 Y179.992 E106.86861
G1 X164.521 Y179.724 E106.87879
G1 X164.72 Y179.522 E106.88917
G1 X164.995 Y179.445 E106.89962
G0 F6000 X164.991 Y179.887
G1 F1200 X165.096 Y179.941 E106.90394
G1 X165.1 Y180.049 E106.90789
G1 X165.009 Y180.113 E106.91196
G1 X164.904 Y180.058 E106.9163
G1 X164.9 Y179.95 E106.92025
G1 X164.991 Y179.887 E106.9243
G1 F1500 E104.9243
G1 F300 Z0.4
G0 F6000 X134.995 Y179.445 Z0.4
G1 F300 Z0.2
G1 F1500 E106.9243
G1 F1200 X135.276 Y179.521 E106.93495
G1 X135.478 Y179.72 E106.94532
G1 X135.555 Y179.995 E106.95577
G1 X135.479 Y180.276 E106.96642
G1 X135.28 Y180.478 E106.9768
G1 X135.005 Y180.555 E106.98725
G1 X134.724 Y180.479 E106.9979
G1 X134.522 Y180.28 E107.00827
G1 X134.446 Y179.992 E107.01917
G1 X134.521 Y179.724 E107.02935
G1 X134.72 Y179.522 E107.03972
G1 X134.995 Y179.445 E107.05017
G0 F6000 X134.994 Y179.004
G1 F1200 X135.346 Y179.067 E107.06325
G1 X135.645 Y179.242 E107.07593
G1 X135.86 Y179.498 E107.08816
G1 X135.981 Y179.825 E107.10092
G1 X135.981 Y180.165 E107.11336
G1 X135.865 Y180.491 E107.12602
G1 X135.643 Y180.761 E107.1388
G1 X135.336 Y180.937 E107.15175
G1 X135.006 Y180.996 E107.16402
G1 X134.654 Y180.933 E107.1771
G1 X134.355 Y180.758 E107.18977
G1 X134.14 Y180.502 E107.20201
G1 X134.021 Y180.183 E107.21446
G1 X134.018 Y179.84 E107.22701
G1 X134.135 Y179.509 E107.23986
G1 X134.357 Y179.239 E107.25264
G1 X134.664 Y179.063 E107.26559
G1 X134.994 Y179.004 E107.27786
G0 F6000 X134.991 Y179.887
G1 F1200 X135.096 Y179.941 E107.28218
G1 X135.1 Y180.049 E107.28613
G1 X135.009 Y180.113 E107.2902
G1 X134.904 Y180.058 E107.29454
G1 X134.9 Y179.95 E107.29849
G1 X134.991 Y179.887 E107.30254
G1 F1500 E105.30254
G1 F300 Z0.4
G0 F6000 X148.372 Y214.94 Z0.4
;TYPE:SUPPORT
G1 F300 Z0.2
G1 F1500 E107.30254
G1 F1200 X148.372 Y85.06 E112.05435
G1 X151.628 Y85.06 E112.17347
G1 X151.628 Y214.94 E116.92528
G1 X148.372 Y214.94 E117.04441
G0 F6000 X147.932 Y215.38
G1 F1200 X147.932 Y84.62 E121.82841
G1 X152.068 Y84.62 E121.97973
G1 X152.068 Y215.38 E126.76374
G1 X147.932 Y215.38 E126.91506
G1 F1500 E124.91506
G1 F300 Z0.4
G0 F6000 X149.6 Y214.852 Z0.4
G1 F300 Z0.2
G1 F1500 E126.91506
G1 F1200 X149.6 Y85.148 E131.66043
G0 F6000 X148.46 Y85.8
G1 F1200 X151.54 Y85.8 E131.77311
G1 F1500 E129.77311
G1 F300 Z0.4
G0 F6000 X151.54 Y88 Z0.4
G1 F300 Z0.2
G1 F1500 E131.77311
G1 F1200 X148.46 Y88 E131.8858
G1 F1500 E129.8858
G1 F300 Z0.4
G0 F6000 X148.46 Y90.2 Z0.4
G1 F300 Z0.2
G1 F1500 E131.8858
G1 F1200 X151.54 Y90.2 E131.99848
G1 F1500 E129.99848
G1 F300 Z0.4
G0 F6000 X151.54 Y92.4 Z0.4
G1 F300 Z0.2
G1 F1500 E131.99848
G1 F1200 X148.46 Y92.4 E132.11117
G1 F1500 E130.11117
G1 F300 Z0.4
G0 F6000 X148.46 Y94.6 Z0.4
G1 F300 Z0.2
G1 F1500 E132.11117
G1 F1200 X151.54 Y94.6 E132.22385
G1 F1500 E130.22385
G1 F300 Z0.4
G0 F6000 X151.54 Y96.8 Z0.4
G1 F300 Z0.2
G1 F1500 E132.22385
G1 F1200 X148.46 Y96.8 E132.33654
G1 F1500 E130.33654
G1 F300 Z0.4
G0 F6000 X148.46 Y99 Z0.4
G1 F300 Z0.2
G1 F1500 E132.33654
G1 F1200 X151.54 Y99 E132.44922
G1 F1500 E130.44922
G1 F300 Z0.4
G0 F6000 X151.54 Y101.2 Z0.4
G1 F300 Z0.2
G1 F1500 E132.44922
G1 F1200 X148.46 Y101.2 E132.56191
G1 F1500 E130.56191
G1 F300 Z0.4
G0 F6000 X148.46 Y103.4 Z0.4
G1 F300 Z0.2
G1 F1500 E132.56191
G1 F1200 X151.54 Y103.4 E132.6746
G1 F1500 E130.6746
G1 F300 Z0.4
G0 F6000 X151.54 Y105.6 Z0.4
G1 F300 Z0.2
G1 F1500 E132.6746
G1 F1200 X148.46 Y105.6 E132.78728
G1 F1500 E130.78728
G1 F300 Z0.4
G0 F6000 X148.46 Y107.8 Z0.4
G1 F300 Z0.2
G1 F1500 E132.78728
G1 F1200 X151.54 Y107.8 E132.89997
G1 F1500 E130.89997
G1 F300 Z0.4
G0 F6000 X151.54 Y110 Z0.4
G1 F300 Z0.2
G1 F1500 E132.89997
G1 F1200 X148.46 Y110 E133.01265
G1 F1500 E131.01265
G1 F300 Z0.4
G0 F6000 X148.46 Y112.2 Z0.4
G1 F300 Z0.2
G1 F1500 E133.01265
G1 F1200 X151.54 Y112.2 E133.12534
G1 F1500 E131.12534
G1 F300 Z0.4
G0 F6000 X151.54 Y114.4 Z0.4
G1 F300 Z0.2
G1 F1500 E133.12534
G1 F1200 X148.46 Y114.4 E133.23802
G1 F1500 E131.23802
G1 F300 Z0.4
G0 F6000 X148.46 Y116.6 Z0.4
G1 F300 Z0.2
G1 F1500 E133.23802
G1 F1200 X151.54 Y116.6 E133.35071
G1 F1500 E131.35071
G1 F300 Z0.4
G0 F6000 X151.54 Y118.8 Z0.4
G1 F300 Z0.2
G1 F1500 E133.35071
G1 F1200 X148.46 Y118.8 E133.46339
G1 F1500 E131.46339
G1 F300 Z0.4
G0 F6000 X148.46 Y121 Z0.4
G1 F300 Z0.2
G1 F1500 E133.46339
G1 F1200 X151.54 Y121 E133.57608
G1 F1500 E131.57608
G1 F300 Z0.4
G0 F6000 X151.54 Y123.2 Z0.4
G1 F300 Z0.2
G1 F1500 E133.57608
G1 F1200 X148.46 Y123.2 E133.68876
G1 F1500 E131.68876
G1 F300 Z0.4
G0 F6000 X148.46 Y125.4 Z0.4
G1 F300 Z0.2
G1 F1500 E133.68876
G1 F1200 X151.54 Y125.4 E133.80145
G1 F1500 E131.80145
G1 F300 Z0.4
G0 F6000 X151.54 Y127.6 Z0.4
G1 F300 Z0.2
G1 F1500 E133.80145
G1 F1200 X148.46 Y127.6 E133.91413
G1 F1500 E131.91413
G1 F300 Z0.4
G0 F6000 X148.46 Y129.8 Z0.4
G1 F300 Z0.2
G1 F1500 E133.91413
G1 F1200 X151.54 Y129.8 E134.02682
G1 F1500 E132.02682
G1 F300 Z0.4
G0 F6000 X151.54 Y132 Z0.4
G1 F300 Z0.2
G1 F1500 E134.02682
G1 F1200 X148.46 Y132 E134.1395
G1 F1500 E132.1395
G1 F300 Z0.4
G0 F6000 X148.46 Y134.2 Z0.4
G1 F300 Z0.2
G1 F1500 E134.1395
G1 F1200 X151.54 Y134.2 E134.25219
G1 F1500 E132.25219
G1 F300 Z0.4
G0 F6000 X151.54 Y136.4 Z0.4
G1 F300 Z0.2
G1 F1500 E134.25219
G1 F1200 X148.46 Y136.4 E134.36488
G1 F1500 E132.36488
G1 F300 Z0.4
G0 F6000 X148.46 Y138.6 Z0.4
G1 F300 Z0.2
G1 F1500 E134.36488
G1 F1200 X151.54 Y138.6 E134.47756
G1 F1500 E132.47756
G1 F300 Z0.4
G0 F6000 X151.54 Y140.8 Z0.4
G1 F300 Z0.2
G1 F1500 E134.47756
G1 F1200 X148.46 Y140.8 E134.59025
G1 F1500 E132.59025
G1 F300 Z0.4
G0 F6000 X148.46 Y143 Z0.4
G1 F300 Z0.2
G1 F1500 E134.59025
G1 F1200 X151.54 Y143 E134.70293
G1 F1500 E132.70293
G1 F300 Z0.4
G0 F6000 X151.54 Y145.2 Z0.4
G1 F300 Z0.2
G1 F1500 E134.70293
G1 F1200 X148.46 Y145.2 E134.81562
G1 F1500 E132.81562
G1 F300 Z0.4
G0 F6000 X148.46 Y147.4 Z0.4
G1 F300 Z0.2
G1 F1500 E134.81562
G1 F1200 X151.54 Y147.4 E134.9283
G1 F1500 E132.9283
G1 F300 Z0.4
G0 F6000 X151.54 Y149.6 Z0.4
G1 F300 Z0.2
G1 F1500 E134.9283
G1 F1200 X148.46 Y149.6 E135.04099
G1 F1500 E133.04099
G1 F300 Z0.4
G0 F6000 X148.46 Y151.8 Z0.4
G1 F300 Z0.2
G1 F1500 E135.04099
G1 F1200 X151.54 Y151.8 E135.15367
G1 F1500 E133.15367
G1 F300 Z0.4
G0 F6000 X151.54 Y154 Z0.4
G1 F300 Z0.2
G1 F1500 E135.15367
G1 F1200 X148.46 Y154 E135.26636
G1 F1500 E133.26636
G1 F300 Z0.4
G0 F6000 X148.46 Y156.2 Z0.4
G1 F300 Z0.2
G1 F1500 E135.26636
G1 F1200 X151.54 Y156.2 E135.37904
G1 F1500 E133.37904
G1 F300 Z0.4
G0 F6000 X151.54 Y158.4 Z0.4
G1 F300 Z0.2
G1 F1500 E135.37904
G1 F1200 X148.46 Y158.4 E135.49173
G1 F1500 E133.49173
G1 F300 Z0.4
G0 F6000 X148.46 Y160.6 Z0.4
G1 F300 Z0.2
G1 F1500 E135.49173
G1 F1200 X151.54 Y160.6 E135.60441
G1 F1500 E133.60441
G1 F300 Z0.4
G0 F6000 X151.54 Y162.8 Z0.4
G1 F300 Z0.2
G1 F1500 E135.60441
G1 F1200 X148.46 Y162.8 E135.7171
G1 F1500 E133.7171
G1 F300 Z0.4
G0 F6000 X148.46 Y165 Z0.4
G1 F300 Z0.2
G1 F1500 E135.7171
G1 F1200 X151.54 Y165 E135.82978
G1 F1500 E133.82978
G1 F300 Z0.4
G0 F6000 X151.54 Y167.2 Z0.4
G1 F300 Z0.2
G1 F1500 E135.82978
G1 F1200 X148.46 Y167.2 E135.94247
G1 F1500 E133.94247
G1 F300 Z0.4
G0 F6000 X148.46 Y169.4 Z0.4
G1 F300 Z0.2
G1 F1500 E135.94247
G1 F1200 X151.54 Y169.4 E136.05516
G1 F1500 E134.05516
G1 F300 Z0.4
G0 F6000 X151.54 Y171.6 Z0.4
G1 F300 Z0.2
G1 F1500 E136.05516
G1 F1200 X148.46 Y171.6 E136.16784
G1 F1500 E134.16784
G1 F300 Z0.4
G0 F6000 X148.46 Y173.8 Z0.4
G1 F300 Z0.2
G1 F1500 E136.16784
G1 F1200 X151.54 Y173.8 E136.28053
G1 F1500 E134.28053
G1 F300 Z0.4
G0 F6000 X151.54 Y176 Z0.4
G1 F300 Z0.2
G1 F1500 E136.28053
G1 F1200 X148.46 Y176 E136.39321
G1 F1500 E134.39321
G1 F300 Z0.4
G0 F6000 X148.46 Y178.2 Z0.4
G1 F300 Z0.2
G1 F1500 E136.39321
G1 F1200 X151.54 Y178.2 E136.5059
G1 F1500 E134.5059
G1 F300 Z0.4
G0 F6000 X151.54 Y180.4 Z0.4
G1 F300 Z0.2
G1 F1500 E136.5059
G1 F1200 X148.46 Y180.4 E136.61858
G1 F1500 E134.61858
G1 F300 Z0.4
G0 F6000 X148.46 Y182.6 Z0.4
G1 F300 Z0.2
G1 F1500 E136.61858
G1 F1200 X151.54 Y182.6 E136.73127
G1 F1500 E134.73127
G1 F300 Z0.4
G0 F6000 X151.54 Y184.8 Z0.4
G1 F300 Z0.2
G1 F1500 E136.73127
G1 F1200 X148.46 Y184.8 E136.84395
G1 F1500 E134.84395
G1 F300 Z0.4
G0 F6000 X148.46 Y187 Z0.4
G1 F300 Z0.2
G1 F1500 E136.84395
G1 F1200 X151.54 Y187 E136.95664
G1 F1500 E134.95664
G1 F300 Z0.4
G0 F6000 X151.54 Y189.2 Z0.4
G1 F300 Z0.2
G1 F1500 E136.95664
G1 F1200 X148.46 Y189.2 E137.06932
G1 F1500 E135.06932
G1 F300 Z0.4
G0 F6000 X148.46 Y191.4 Z0.4
G1 F300 Z0.2
G1 F1500 E137.06932
G1 F1200 X151.54 Y191.4 E137.18201
G1 F1500 E135.18201
G1 F300 Z0.4
G0 F6000 X151.54 Y193.6 Z0.4
G1 F300 Z0.2
G1 F1500 E137.18201
G1 F1200 X148.46 Y193.6 E137.29469
G1 F1500 E135.29469
G1 F300 Z0.4
G0 F6000 X148.46 Y195.8 Z0.4
G1 F300 Z0.2
G1 F1500 E137.29469
G1 F1200 X151.54 Y195.8 E137.40738
G1 F1500 E135.40738
G1 F300 Z0.4
G0 F6000 X151.54 Y198 Z0.4
G1 F300 Z0.2
G1 F1500 E137.40738
G1 F1200 X148.46 Y198 E137.52006
G1 F1500 E135.52006
G1 F300 Z0.4
G0 F6000 X148.46 Y200.2 Z0.4
G1 F300 Z0.2
G1 F1500 E137.52006
G1 F1200 X151.54 Y200.2 E137.63275
G1 F1500 E135.63275
G1 F300 Z0.4
G0 F6000 X151.54 Y202.4 Z0.4
G1 F300 Z0.2
G1 F1500 E137.63275
G1 F1200 X148.46 Y202.4 E137.74544
G1 F1500 E135.74544
G1 F300 Z0.4
G0 F6000 X148.46 Y204.6 Z0.4
G1 F300 Z0.2
G1 F1500 E137.74544
G1 F1200 X151.54 Y204.6 E137.85812
G1 F1500 E135.85812
G1 F300 Z0.4
G0 F6000 X151.54 Y206.8 Z0.4
G1 F300 Z0.2
G1 F1500 E137.85812
G1 F1200 X148.46 Y206.8 E137.97081
G1 F1500 E135.97081
G1 F300 Z0.4
G0 F6000 X148.46 Y209 Z0.4
G1 F300 Z0.2
G1 F1500 E137.97081
G1 F1200 X151.54 Y209 E138.08349
G1 F1500 E136.08349
G1 F300 Z0.4
G0 F6000 X151.54 Y211.2 Z0.4
G1 F300 Z0.2
G1 F1500 E138.08349
G1 F1200 X148.46 Y211.2 E138.19618
G1 F1500 E136.19618
G1 F300 Z0.4
G0 F6000 X148.46 Y213.4 Z0.4
G1 F300 Z0.2
G1 F1500 E138.19618
G1 F1200 X151.54 Y213.4 E138.30886
G1 F1500 E136.30886
G1 F300 Z0.4
;MESH:markholderv1.STL
G0 F6000 X165.003 Y103.205 Z0.4
;TYPE:WALL-INNER
G1 F300 Z0.2
G1 F1500 E138.30886
G1 F1200 X165.563 Y103.154 E138.32944
G1 X166.1 Y103.009 E138.34979
G1 X166.606 Y102.772 E138.37023
G1 X167.063 Y102.452 E138.39064
G1 X167.458 Y102.055 E138.41113
G1 X167.777 Y101.597 E138.43155
G1 X168.012 Y101.09 E138.45199
G1 X168.155 Y100.553 E138.47233
G1 X168.205 Y99.997 E138.49275
G1 X168.154 Y99.437 E138.51332
G1 X168.009 Y98.9 E138.53367
