;FLAVOR:Marlin
;TIME:26757
;Filament used: 24.6755m
;Layer height: 0.2
;MINX:130.22
;MINY:69.999
;MINZ:0.2
;MAXX:169.78
;MAXY:229.999
;MAXZ:37.8
;Generated with Cura_SteamEngine 4.13.1
M140 S60
M105
M190 S60
M104 S200
M105
M109 S200
M82 ;absolute extrusion mode
G28 ; home all axes
 M117 Purge extruder
 G92 E0 ; reset extruder
 G1 Z1.0 F3000 ; move z up little to prevent scratching of surface
 G1 X2 Y20 Z0.3 F5000.0 ; move to start-line position
 G1 X2 Y200.0 Z0.3 F1500.0 E15 ; draw 1st line
 G1 X2 Y200.0 Z0.4 F5000.0 ; move to side a little
 G1 X2 Y20 Z0.4 F1500.0 E30 ; draw 2nd line
 G92 E0 ; reset extruder
 G1 Z1.0 F3000 ; move z up little to prevent scratching of surface
G92 E0
G92 E0
G1 F1500 E-2
;LAYER_COUNT:188
;LAYER:0
M107
G1 F300 Z0.4
G0 F6000 X147.492 Y74.18 Z0.4
;TYPE:SKIRT
G1 F300 Z0.2
G1 F1500 E0
G1 F1200 X152.508 Y74.18 E0.18352
G1 X152.508 Y225.82 E5.73144
G1 X147.492 Y225.82 E5.91496
G1 X147.492 Y74.18 E11.46288
G0 F6000 X147.052 Y73.74
G1 F1200 X152.948 Y73.74 E11.67859
G1 X152.948 Y226.26 E17.25871
G1 X147.052 Y226.26 E17.47442
G1 X147.052 Y73.74 E23.05454
G0 F6000 X146.612 Y73.3
G1 F1200 X153.388 Y73.3 E23.30245
G1 X153.388 Y226.7 E28.91476
G1 X146.612 Y226.7 E29.16267
G1 X146.612 Y73.3 E34.77499
G0 F6000 X146.172 Y72.86
G1 F1200 X153.828 Y72.86 E35.05509
G1 X153.828 Y227.14 E40.6996
G1 X146.172 Y227.14 E40.97971
G1 X146.172 Y72.86 E46.62422
G0 F6000 X145.732 Y72.42
G1 F1200 X154.268 Y72.42 E46.93652
G1 X154.268 Y227.58 E52.61322
G1 X145.732 Y227.58 E52.92552
G1 X145.732 Y72.42 E58.60223
G0 F6000 X145.292 Y71.98
G1 F1200 X154.708 Y71.98 E58.94672
G1 X154.708 Y228.02 E64.65563
G1 X145.292 Y228.02 E65.00012
G1 X145.292 Y71.98 E70.70902
G0 F6000 X144.852 Y71.54
G1 F1200 X155.148 Y71.54 E71.08572
G1 X155.148 Y228.46 E76.82681
G1 X144.852 Y228.46 E77.20351
G1 X144.852 Y71.54 E82.9446
G0 F6000 X144.412 Y71.1
G1 F1200 X155.588 Y71.1 E83.35349
G1 X155.588 Y228.9 E89.12678
G1 X144.412 Y228.9 E89.53567
G1 X144.412 Y71.1 E95.30897
G0 F6000 X143.972 Y70.66
G1 F1200 X156.028 Y70.66 E95.75005
G1 X156.028 Y229.34 E101.55554
G1 X143.972 Y229.34 E101.99662
G1 X143.972 Y70.66 E107.80211
G0 F6000 X143.532 Y70.22
G1 F1200 X156.468 Y70.22 E108.27539
G1 X156.468 Y229.78 E114.11308
G1 X143.532 Y229.78 E114.58635
G1 X143.532 Y70.22 E120.42404
G1 F1500 E118.42404
G1 F300 Z0.4
G0 F6000 X147.932 Y74.62 Z0.4
;TYPE:SUPPORT
G1 F300 Z0.2
G1 F1500 E120.42404
G1 F1200 X152.068 Y74.62 E120.57536
G1 X152.068 Y225.38 E126.09109
G1 X147.932 Y225.38 E126.24241
G1 X147.932 Y74.62 E131.75814
G0 F6000 X148.372 Y75.06
G1 F1200 X151.628 Y75.06 E131.87726
G1 X151.628 Y224.94 E137.36079
G1 X148.372 Y224.94 E137.47992
G1 X148.372 Y75.06 E142.96345
G0 F6000 X149.6 Y75.148
G1 F1200 X149.6 Y224.852 E148.44054
G0 F6000 X148.46 Y224.4
G1 F1200 X151.54 Y224.4 E148.55323
G1 F1500 E146.55323
G1 F300 Z0.4
G0 F6000 X151.54 Y222.2 Z0.4
G1 F300 Z0.2
G1 F1500 E148.55323
G1 F1200 X148.46 Y222.2 E148.66591
G1 F1500 E146.66591
G1 F300 Z0.4
G0 F6000 X148.46 Y220 Z0.4
G1 F300 Z0.2
G1 F1500 E148.66591
G1 F1200 X151.54 Y220 E148.7786
G1 F1500 E146.7786
G1 F300 Z0.4
G0 F6000 X151.54 Y217.8 Z0.4
G1 F300 Z0.2
G1 F1500 E148.7786
G1 F1200 X148.46 Y217.8 E148.89128
G1 F1500 E146.89128
G1 F300 Z0.4
G0 F6000 X148.46 Y215.6 Z0.4
G1 F300 Z0.2
G1 F1500 E148.89128
G1 F1200 X151.54 Y215.6 E149.00397
G1 F1500 E147.00397
G1 F300 Z0.4
G0 F6000 X151.54 Y213.4 Z0.4
G1 F300 Z0.2
G1 F1500 E149.00397
G1 F1200 X148.46 Y213.4 E149.11665
G1 F1500 E147.11665
G1 F300 Z0.4
G0 F6000 X148.46 Y211.2 Z0.4
G1 F300 Z0.2
G1 F1500 E149.11665
G1 F1200 X151.54 Y211.2 E149.22934
G1 F1500 E147.22934
G1 F300 Z0.4
G0 F6000 X151.54 Y209 Z0.4
G1 F300 Z0.2
G1 F1500 E149.22934
G1 F1200 X148.46 Y209 E149.34202
G1 F1500 E147.34202
G1 F300 Z0.4
G0 F6000 X148.46 Y206.8 Z0.4
G1 F300 Z0.2
G1 F1500 E149.34202
G1 F1200 X151.54 Y206.8 E149.45471
G1 F1500 E147.45471
G1 F300 Z0.4
G0 F6000 X151.54 Y204.6 Z0.4
G1 F300 Z0.2
G1 F1500 E149.45471
G1 F1200 X148.46 Y204.6 E149.56739
G1 F1500 E147.56739
G1 F300 Z0.4
G0 F6000 X148.46 Y202.4 Z0.4
G1 F300 Z0.2
G1 F1500 E149.56739
G1 F1200 X151.54 Y202.4 E149.68008
G1 F1500 E147.68008
G1 F300 Z0.4
G0 F6000 X151.54 Y200.2 Z0.4
G1 F300 Z0.2
G1 F1500 E149.68008
G1 F1200 X148.46 Y200.2 E149.79277
G1 F1500 E147.79277
G1 F300 Z0.4
G0 F6000 X148.46 Y198 Z0.4
G1 F300 Z0.2
G1 F1500 E149.79277
G1 F1200 X151.54 Y198 E149.90545
G1 F1500 E147.90545
G1 F300 Z0.4
G0 F6000 X151.54 Y195.8 Z0.4
G1 F300 Z0.2
G1 F1500 E149.90545
G1 F1200 X148.46 Y195.8 E150.01814
G1 F1500 E148.01814
G1 F300 Z0.4
G0 F6000 X148.46 Y193.6 Z0.4
G1 F300 Z0.2
G1 F1500 E150.01814
G1 F1200 X151.54 Y193.6 E150.13082
G1 F1500 E148.13082
G1 F300 Z0.4
G0 F6000 X151.54 Y191.4 Z0.4
G1 F300 Z0.2
G1 F1500 E150.13082
G1 F1200 X148.46 Y191.4 E150.24351
G1 F1500 E148.24351
G1 F300 Z0.4
G0 F6000 X148.46 Y189.2 Z0.4
G1 F300 Z0.2
G1 F1500 E150.24351
G1 F1200 X151.54 Y189.2 E150.35619
G1 F1500 E148.35619
G1 F300 Z0.4
G0 F6000 X151.54 Y187 Z0.4
G1 F300 Z0.2
G1 F1500 E150.35619
G1 F1200 X148.46 Y187 E150.46888
G1 F1500 E148.46888
G1 F300 Z0.4
G0 F6000 X148.46 Y184.8 Z0.4
G1 F300 Z0.2
G1 F1500 E150.46888
G1 F1200 X151.54 Y184.8 E150.58156
G1 F1500 E148.58156
G1 F300 Z0.4
G0 F6000 X151.54 Y182.6 Z0.4
G1 F300 Z0.2
G1 F1500 E150.58156
G1 F1200 X148.46 Y182.6 E150.69425
G1 F1500 E148.69425
G1 F300 Z0.4
G0 F6000 X148.46 Y180.4 Z0.4
G1 F300 Z0.2
G1 F1500 E150.69425
G1 F1200 X151.54 Y180.4 E150.80693
G1 F1500 E148.80693
G1 F300 Z0.4
G0 F6000 X151.54 Y178.2 Z0.4
G1 F300 Z0.2
G1 F1500 E150.80693
G1 F1200 X148.46 Y178.2 E150.91962
G1 F1500 E148.91962
G1 F300 Z0.4
G0 F6000 X148.46 Y176 Z0.4
G1 F300 Z0.2
G1 F1500 E150.91962
G1 F1200 X151.54 Y176 E151.0323
G1 F1500 E149.0323
G1 F300 Z0.4
G0 F6000 X151.54 Y173.8 Z0.4
G1 F300 Z0.2
G1 F1500 E151.0323
G1 F1200 X148.46 Y173.8 E151.14499
G1 F1500 E149.14499
G1 F300 Z0.4
G0 F6000 X148.46 Y171.6 Z0.4
G1 F300 Z0.2
G1 F1500 E151.14499
G1 F1200 X151.54 Y171.6 E151.25767
G1 F1500 E149.25767
G1 F300 Z0.4
G0 F6000 X151.54 Y169.4 Z0.4
G1 F300 Z0.2
G1 F1500 E151.25767
G1 F1200 X148.46 Y169.4 E151.37036
G1 F1500 E149.37036
G1 F300 Z0.4
G0 F6000 X148.46 Y167.2 Z0.4
G1 F300 Z0.2
G1 F1500 E151.37036
G1 F1200 X151.54 Y167.2 E151.48305
G1 F1500 E149.48305
G1 F300 Z0.4
G0 F6000 X151.54 Y165 Z0.4
G1 F300 Z0.2
G1 F1500 E151.48305
G1 F1200 X148.46 Y165 E151.59573
G1 F1500 E149.59573
G1 F300 Z0.4
G0 F6000 X148.46 Y162.8 Z0.4
G1 F300 Z0.2
G1 F1500 E151.59573
G1 F1200 X151.54 Y162.8 E151.70842
G1 F1500 E149.70842
G1 F300 Z0.4
G0 F6000 X151.54 Y160.6 Z0.4
G1 F300 Z0.2
G1 F1500 E151.70842
G1 F1200 X148.46 Y160.6 E151.8211
G1 F1500 E149.8211
G1 F300 Z0.4
G0 F6000 X148.46 Y158.4 Z0.4
G1 F300 Z0.2
G1 F1500 E151.8211
G1 F1200 X151.54 Y158.4 E151.93379
G1 F1500 E149.93379
G1 F300 Z0.4
G0 F6000 X151.54 Y156.2 Z0.4
G1 F300 Z0.2
G1 F1500 E151.93379
G1 F1200 X148.46 Y156.2 E152.04647
G1 F1500 E150.04647
G1 F300 Z0.4
G0 F6000 X148.46 Y154 Z0.4
G1 F300 Z0.2
G1 F1500 E152.04647
G1 F1200 X151.54 Y154 E152.15916
G1 F1500 E150.15916
G1 F300 Z0.4
G0 F6000 X151.54 Y151.8 Z0.4
G1 F300 Z0.2
G1 F1500 E152.15916
G1 F1200 X148.46 Y151.8 E152.27184
G1 F1500 E150.27184
G1 F300 Z0.4
G0 F6000 X148.46 Y149.6 Z0.4
G1 F300 Z0.2
G1 F1500 E152.27184
G1 F1200 X151.54 Y149.6 E152.38453
G1 F1500 E150.38453
G1 F300 Z0.4
G0 F6000 X151.54 Y147.4 Z0.4
G1 F300 Z0.2
G1 F1500 E152.38453
G1 F1200 X148.46 Y147.4 E152.49721
G1 F1500 E150.49721
G1 F300 Z0.4
G0 F6000 X148.46 Y145.2 Z0.4
G1 F300 Z0.2
G1 F1500 E152.49721
G1 F1200 X151.54 Y145.2 E152.6099
G1 F1500 E150.6099
G1 F300 Z0.4
G0 F6000 X151.54 Y143 Z0.4
G1 F300 Z0.2
G1 F1500 E152.6099
G1 F1200 X148.46 Y143 E152.72258
G1 F1500 E150.72258
G1 F300 Z0.4
G0 F6000 X148.46 Y140.8 Z0.4
G1 F300 Z0.2
G1 F1500 E152.72258
G1 F1200 X151.54 Y140.8 E152.83527
G1 F1500 E150.83527
G1 F300 Z0.4
G0 F6000 X151.54 Y138.6 Z0.4
G1 F300 Z0.2
G1 F1500 E152.83527
G1 F1200 X148.46 Y138.6 E152.94795
G1 F1500 E150.94795
G1 F300 Z0.4
G0 F6000 X148.46 Y136.4 Z0.4
G1 F300 Z0.2
G1 F1500 E152.94795
G1 F1200 X151.54 Y136.4 E153.06064
G1 F1500 E151.06064
G1 F300 Z0.4
G0 F6000 X151.54 Y134.2 Z0.4
G1 F300 Z0.2
G1 F1500 E153.06064
G1 F1200 X148.46 Y134.2 E153.17333
G1 F1500 E151.17333
G1 F300 Z0.4
G0 F6000 X148.46 Y132 Z0.4
G1 F300 Z0.2
G1 F1500 E153.17333
G1 F1200 X151.54 Y132 E153.28601
G1 F1500 E151.28601
G1 F300 Z0.4
G0 F6000 X151.54 Y129.8 Z0.4
G1 F300 Z0.2
G1 F1500 E153.28601
G1 F1200 X148.46 Y129.8 E153.3987
G1 F1500 E151.3987
G1 F300 Z0.4
G0 F6000 X148.46 Y127.6 Z0.4
G1 F300 Z0.2
G1 F1500 E153.3987
G1 F1200 X151.54 Y127.6 E153.51138
G1 F1500 E151.51138
G1 F300 Z0.4
G0 F6000 X151.54 Y125.4 Z0.4
G1 F300 Z0.2
G1 F1500 E153.51138
G1 F1200 X148.46 Y125.4 E153.62407
G1 F1500 E151.62407
G1 F300 Z0.4
G0 F6000 X148.46 Y123.2 Z0.4
G1 F300 Z0.2
G1 F1500 E153.62407
G1 F1200 X151.54 Y123.2 E153.73675
G1 F1500 E151.73675
G1 F300 Z0.4
G0 F6000 X151.54 Y121 Z0.4
G1 F300 Z0.2
G1 F1500 E153.73675
G1 F1200 X148.46 Y121 E153.84944
G1 F1500 E151.84944
G1 F300 Z0.4
G0 F6000 X148.46 Y118.8 Z0.4
G1 F300 Z0.2
G1 F1500 E153.84944
G1 F1200 X151.54 Y118.8 E153.96212
G1 F1500 E151.96212
G1 F300 Z0.4
G0 F6000 X151.54 Y116.6 Z0.4
G1 F300 Z0.2
G1 F1500 E153.96212
G1 F1200 X148.46 Y116.6 E154.07481
G1 F1500 E152.07481
G1 F300 Z0.4
G0 F6000 X148.46 Y114.4 Z0.4
G1 F300 Z0.2
G1 F1500 E154.07481
G1 F1200 X151.54 Y114.4 E154.18749
G1 F1500 E152.18749
G1 F300 Z0.4
G0 F6000 X151.54 Y112.2 Z0.4
G1 F300 Z0.2
G1 F1500 E154.18749
G1 F1200 X148.46 Y112.2 E154.30018
G1 F1500 E152.30018
G1 F300 Z0.4
G0 F6000 X148.46 Y110 Z0.4
G1 F300 Z0.2
G1 F1500 E154.30018
G1 F1200 X151.54 Y110 E154.41286
G1 F1500 E152.41286
G1 F300 Z0.4
G0 F6000 X151.54 Y107.8 Z0.4
G1 F300 Z0.2
G1 F1500 E154.41286
G1 F1200 X148.46 Y107.8 E154.52555
G1 F1500 E152.52555
G1 F300 Z0.4
G0 F6000 X148.46 Y105.6 Z0.4
G1 F300 Z0.2
G1 F1500 E154.52555
G1 F1200 X151.54 Y105.6 E154.63824
G1 F1500 E152.63824
G1 F300 Z0.4
G0 F6000 X151.54 Y103.4 Z0.4
G1 F300 Z0.2
G1 F1500 E154.63824
G1 F1200 X148.46 Y103.4 E154.75092
G1 F1500 E152.75092
G1 F300 Z0.4
G0 F6000 X148.46 Y101.2 Z0.4
G1 F300 Z0.2
G1 F1500 E154.75092
G1 F1200 X151.54 Y101.2 E154.86361
G1 F1500 E152.86361
G1 F300 Z0.4
G0 F6000 X151.54 Y99 Z0.4
G1 F300 Z0.2
G1 F1500 E154.86361
G1 F1200 X148.46 Y99 E154.97629
G1 F1500 E152.97629
G1 F300 Z0.4
G0 F6000 X148.46 Y96.8 Z0.4
G1 F300 Z0.2
G1 F1500 E154.97629
G1 F1200 X151.54 Y96.8 E155.08898
G1 F1500 E153.08898
G1 F300 Z0.4
G0 F6000 X151.54 Y94.6 Z0.4
G1 F300 Z0.2
G1 F1500 E155.08898
G1 F1200 X148.46 Y94.6 E155.20166
G1 F1500 E153.20166
G1 F300 Z0.4
G0 F6000 X148.46 Y92.4 Z0.4
G1 F300 Z0.2
G1 F1500 E155.20166
G1 F1200 X151.54 Y92.4 E155.31435
G1 F1500 E153.31435
G1 F300 Z0.4
G0 F6000 X151.54 Y90.2 Z0.4
G1 F300 Z0.2
G1 F1500 E155.31435
G1 F1200 X148.46 Y90.2 E155.42703
G1 F1500 E153.42703
G1 F300 Z0.4
G0 F6000 X148.46 Y88 Z0.4
G1 F300 Z0.2
G1 F1500 E155.42703
G1 F1200 X151.54 Y88 E155.53972
G1 F1500 E153.53972
G1 F300 Z0.4
G0 F6000 X151.54 Y85.8 Z0.4
G1 F300 Z0.2
G1 F1500 E155.53972
G1 F1200 X148.46 Y85.8 E155.6524
G1 F1500 E153.6524
G1 F300 Z0.4
G0 F6000 X148.46 Y83.6 Z0.4
G1 F300 Z0.2
G1 F1500 E155.6524
G1 F1200 X151.54 Y83.6 E155.76509
G1 F1500 E153.76509
G1 F300 Z0.4
G0 F6000 X151.54 Y81.4 Z0.4
G1 F300 Z0.2
G1 F1500 E155.76509
G1 F1200 X148.46 Y81.4 E155.87777
G1 F1500 E153.87777
G1 F300 Z0.4
G0 F6000 X148.46 Y79.2 Z0.4
G1 F300 Z0.2
G1 F1500 E155.87777
G1 F1200 X151.54 Y79.2 E155.99046
G1 F1500 E153.99046
G1 F300 Z0.4
G0 F6000 X151.54 Y77 Z0.4
G1 F300 Z0.2
G1 F1500 E155.99046
G1 F1200 X148.46 Y77 E156.10314
G1 F1500 E154.10314
G1 F300 Z0.4
;MESH:markholderv1.STL
G0 F6000 X165.002 Y92.605 Z0.4
;TYPE:WALL-INNER
G1 F300 Z0.2
G1 F1500 E156.10314
G1 F1200 X165.457 Y92.564 E156.11986
G1 X165.893 Y92.446 E156.13638
G1 X166.307 Y92.253 E156.1531
G1 X166.678 Y91.99 E156.16973
G1 X166.996 Y91.671 E156.18621
G1 X167.256 Y91.3 E156.20279
G1 X167.45 Y90.886 E156.21952
G1 X167.564 Y90.448 E156.23607
G1 X167.605 Y89.998 E156.25261
G1 X167.564 Y89.543 E156.26932
G1 X167.446 Y89.107 E156.28585
G1 X167.253 Y88.693 E156.30256
G1 X166.99 Y88.322 E156.3192
G1 X166.671 Y88.004 E156.33567
G1 X166.3 Y87.744 E156.35225
G1 X165.886 Y87.55 E156.36898
G1 X165.448 Y87.436 E156.38554
G1 X164.998 Y87.395 E156.40207
G1 X164.543 Y87.436 E156.41878
G1 X164.107 Y87.554 E156.43531
G1 X163.693 Y87.747 E156.45202
G1 X163.322 Y88.01 E156.46866
G1 X163.004 Y88.329 E156.48514
G1 X162.744 Y88.7 E156.50171
G1 X162.55 Y89.114 E156.51844
G1 X162.436 Y89.552 E156.535
G1 X162.395 Y90 E156.55146
G1 X162.436 Y90.454 E156.56813
G1 X162.554 Y90.893 E156.58476
G1 X162.747 Y91.307 E156.60148
G1 X163.01 Y91.678 E156.61811
G1 X163.329 Y91.996 E156.63459
G1 X163.7 Y92.256 E156.65117
G1 X164.114 Y92.45 E156.6679
G1 X164.552 Y92.564 E156.68445
G1 X165.002 Y92.605 E156.70099
G0 F6000 X165.002 Y92.163
G1 F1200 X165.379 Y92.129 E156.71484
G1 X165.742 Y92.031 E156.72859
G1 X166.085 Y91.871 E156.74244
G1 X166.393 Y91.653 E156.75624
G1 X166.658 Y91.387 E156.76998
G1 X166.874 Y91.079 E156.78374
G1 X167.034 Y90.736 E156.79759
G1 X167.129 Y90.372 E156.81136
G1 X167.163 Y89.998 E156.8251
G1 X167.129 Y89.621 E156.83894
G1 X167.031 Y89.258 E156.8527
G1 X166.871 Y88.915 E156.86655
G1 X166.653 Y88.607 E156.88035
G1 X166.387 Y88.342 E156.89409
G1 X166.079 Y88.126 E156.90785
G1 X165.736 Y87.966 E156.9217
G1 X165.372 Y87.871 E156.93546
G1 X164.998 Y87.837 E156.9492
G1 X164.621 Y87.871 E156.96305
G1 X164.258 Y87.969 E156.97681
G1 X163.915 Y88.129 E156.99066
G1 X163.607 Y88.347 E157.00446
G1 X163.342 Y88.613 E157.0182
G1 X163.126 Y88.921 E157.03196
G1 X162.966 Y89.264 E157.04581
G1 X162.871 Y89.628 E157.05957
G1 X162.837 Y90 E157.07324
G1 X162.871 Y90.377 E157.08709
G1 X162.969 Y90.742 E157.10092
G1 X163.129 Y91.085 E157.11476
G1 X163.347 Y91.393 E157.12857
G1 X163.613 Y91.658 E157.14231
G1 X163.921 Y91.874 E157.15607
G1 X164.264 Y92.034 E157.16992
G1 X164.628 Y92.129 E157.18368
G1 X165.002 Y92.163 E157.19742
G0 F6000 X165.002 Y91.721
;TYPE:WALL-OUTER
G1 F1200 X165.301 Y91.694 E157.2084
G1 X165.591 Y91.616 E157.21939
G1 X165.863 Y91.489 E157.23037
G1 X166.108 Y91.316 E157.24135
G1 X166.319 Y91.104 E157.25229
G1 X166.491 Y90.858 E157.26327
G1 X166.618 Y90.586 E157.27425
G1 X166.694 Y90.296 E157.28522
G1 X166.721 Y89.998 E157.29617
G1 X166.694 Y89.699 E157.30715
G1 X166.616 Y89.409 E157.31814
G1 X166.489 Y89.137 E157.32912
G1 X166.316 Y88.892 E157.3401
G1 X166.104 Y88.681 E157.35104
G1 X165.858 Y88.509 E157.36202
G1 X165.586 Y88.382 E157.373
G1 X165.296 Y88.306 E157.38397
G1 X164.998 Y88.279 E157.39492
G1 X164.699 Y88.306 E157.4059
G1 X164.409 Y88.384 E157.41689
G1 X164.137 Y88.511 E157.42787
G1 X163.892 Y88.684 E157.43885
G1 X163.681 Y88.896 E157.44979
G1 X163.509 Y89.142 E157.46077
G1 X163.382 Y89.414 E157.47175
G1 X163.306 Y89.704 E157.48272
G1 X163.279 Y90 E157.4936
G1 X163.306 Y90.3 E157.50462
G1 X163.384 Y90.591 E157.51564
G1 X163.511 Y90.863 E157.52662
G1 X163.684 Y91.108 E157.5376
G1 X163.896 Y91.319 E157.54854
G1 X164.142 Y91.491 E157.55952
G1 X164.414 Y91.618 E157.5705
G1 X164.704 Y91.694 E157.58147
G1 X165.002 Y91.721 E157.59242
G0 F6000 X165.002 Y92.205
G1 F1500 E155.59242
G1 F300 Z0.4
G0 F6000 X164.552 Y192.564 Z0.4
;TYPE:WALL-INNER
G1 F300 Z0.2
G1 F1500 E157.59242
G1 F1200 X165.002 Y192.605 E157.60895
G1 X165.457 Y192.564 E157.62566
G1 X165.893 Y192.446 E157.64219
G1 X166.307 Y192.253 E157.6589
G1 X166.678 Y191.99 E157.67554
G1 X166.996 Y191.671 E157.69202
G1 X167.256 Y191.3 E157.70859
G1 X167.45 Y190.886 E157.72532
G1 X167.564 Y190.448 E157.74188
G1 X167.605 Y189.998 E157.75841
G1 X167.564 Y189.543 E157.77513
G1 X167.446 Y189.107 E157.79165
G1 X167.253 Y188.693 E157.80836
G1 X166.99 Y188.322 E157.825
G1 X166.671 Y188.004 E157.84148
G1 X166.3 Y187.744 E157.85806
G1 X165.886 Y187.55 E157.87478
G1 X165.448 Y187.436 E157.89134
G1 X164.998 Y187.395 E157.90787
G1 X164.543 Y187.436 E157.92459
G1 X164.107 Y187.554 E157.94111
G1 X163.693 Y187.747 E157.95782
G1 X163.322 Y188.01 E157.97446
G1 X163.004 Y188.329 E157.99094
G1 X162.744 Y188.7 E158.00752
G1 X162.55 Y189.114 E158.02424
G1 X162.436 Y189.552 E158.0408
G1 X162.395 Y190 E158.05726
G1 X162.436 Y190.454 E158.07394
