;FLAVOR:Marlin
;TIME:17880
;Filament used: 15.9683m
;Layer height: 0.2
;MINX:130.22
;MINY:79.999
;MINZ:0.2
;MAXX:169.78
;MAXY:219.999
;MAXZ:20.2
;Generated with Cura_SteamEngine 4.13.1
M140 S60
M105
M190 S60
M104 S200
M105
M109 S200
M82 ;absolute extrusion mode
G28 ; home all axes
 M117 Purge extruder
 G92 E0 ; reset extruder
 G1 Z1.0 F3000 ; move z up little to prevent scratching of surface
 G1 X2 Y20 Z0.3 F5000.0 ; move to start-line position
 G1 X2 Y200.0 Z0.3 F1500.0 E15 ; draw 1st line
 G1 X2 Y200.0 Z0.4 F5000.0 ; move to side a little
 G1 X2 Y20 Z0.4 F1500.0 E30 ; draw 2nd line
 G92 E0 ; reset extruder
 G1 Z1.0 F3000 ; move z up little to prevent scratching of surface
G92 E0
G92 E0
G1 F1500 E-2
;LAYER_COUNT:100
;LAYER:0
M107
G1 F300 Z0.4
G0 F6000 X147.492 Y84.18 Z0.4
;TYPE:SKIRT
G1 F300 Z0.2
G1 F1500 E0
G1 F1200 X148.543 Y84.18 E0.03845
G1 X148.738 Y84.189 E0.04559
G1 X151.262 Y84.189 E0.13794
G1 X151.392 Y84.18 E0.1427
G1 X152.508 Y84.18 E0.18354
G1 X152.508 Y104.251 E0.91786
G1 X151.961 Y104.035 E0.93937
G1 X151.41 Y103.86 E0.96052
G1 X150.571 Y103.745 E0.99151
G1 X149.844 Y103.72 E1.01812
G1 X149.266 Y103.741 E1.03928
G1 X148.697 Y103.84 E1.06041
G1 X148.402 Y103.925 E1.07164
G1 X147.492 Y104.222 E1.10666
G1 X147.492 Y84.18 E1.83992
G0 F6000 X147.052 Y83.74
G1 F1200 X148.649 Y83.74 E1.89835
G1 X148.738 Y83.749 E1.90163
G1 X151.262 Y83.749 E1.99397
G1 X151.385 Y83.74 E1.99848
G1 X152.948 Y83.74 E2.05566
G1 X152.948 Y104.897 E2.82972
G1 X151.799 Y104.444 E2.8749
G1 X151.278 Y104.281 E2.89488
G1 X150.556 Y104.185 E2.92152
G1 X149.829 Y104.16 E2.94814
G1 X149.282 Y104.181 E2.96817
G1 X148.539 Y104.343 E2.99599
G1 X147.406 Y104.713 E3.03959
G1 X147.052 Y104.858 E3.05359
G1 X147.052 Y83.74 E3.82622
G0 F6000 X146.612 Y83.3
G1 F1200 X148.626 Y83.3 E3.8999
G1 X148.738 Y83.309 E3.90401
G1 X151.262 Y83.309 E3.99636
G1 X151.377 Y83.3 E4.00058
G1 X153.388 Y83.3 E4.07415
G1 X153.388 Y105.57 E4.88892
G1 X153.055 Y105.412 E4.90241
G1 X151.638 Y104.853 E4.95814
G1 X151.147 Y104.703 E4.97692
G1 X150.54 Y104.625 E4.99931
G1 X149.813 Y104.6 E5.02593
G1 X149.3 Y104.622 E5.04471
G1 X148.676 Y104.761 E5.0681
G1 X147.543 Y105.131 E5.11171
G1 X147.068 Y105.328 E5.13052
G1 X146.63 Y105.596 E5.14931
G1 X146.612 Y105.611 E5.15017
G1 X146.612 Y83.3 E5.96644
G1 F1500 E3.96644
G1 F300 Z0.4
G0 F6000 X148.581 Y82.86 Z0.4
G1 F300 Z0.2
G1 F1500 E5.96644
G1 F1200 X148.738 Y82.869 E5.97219
G1 X151.262 Y82.869 E6.06454
G1 X151.369 Y82.86 E6.06847
G1 X153.828 Y82.86 E6.15843
G1 X153.828 Y106.432 E7.02084
G1 X153.549 Y106.186 E7.03445
G1 X153.143 Y105.934 E7.05193
G1 X152.894 Y105.822 E7.06192
G1 X151.477 Y105.263 E7.11765
G1 X151.019 Y105.125 E7.13515
G1 X150.525 Y105.065 E7.15336
G1 X149.798 Y105.04 E7.17997
G1 X149.321 Y105.063 E7.19744
G1 X148.812 Y105.179 E7.21654
G1 X147.679 Y105.549 E7.26015
G1 X147.239 Y105.735 E7.27763
G1 X146.836 Y105.992 E7.29511
G1 X146.481 Y106.312 E7.3126
G1 X146.172 Y106.737 E7.33182
G1 X146.172 Y82.86 E8.20539
G1 X148.581 Y82.86 E8.29353
G0 F6000 X148.663 Y82.42
G1 F1200 X148.738 Y82.429 E8.29629
G1 X151.262 Y82.429 E8.38864
G1 X151.361 Y82.42 E8.39227
G1 X154.268 Y82.42 E8.49863
G1 X154.268 Y107.821 E9.42795
G1 X154.092 Y107.484 E9.44186
G1 X153.845 Y107.121 E9.45793
G1 X153.566 Y106.781 E9.47402
G1 X153.229 Y106.498 E9.49012
G1 X152.732 Y106.231 E9.51076
G1 X151.315 Y105.672 E9.56649
G1 X150.893 Y105.548 E9.58258
G1 X150.51 Y105.504 E9.59669
G1 X149.783 Y105.479 E9.6233
G1 X149.344 Y105.504 E9.63939
G1 X148.949 Y105.598 E9.65424
G1 X147.816 Y105.968 E9.69785
G1 X147.412 Y106.141 E9.71393
G1 X147.046 Y106.385 E9.73002
G1 X146.731 Y106.691 E9.74609
G1 X146.446 Y107.103 E9.76442
G1 X145.891 Y108.113 E9.80658
G1 X145.732 Y108.476 E9.82108
G1 X145.732 Y82.42 E10.77437
G1 X148.663 Y82.42 E10.8816
G0 F6000 X148.64 Y81.98
G1 F1200 X148.738 Y81.989 E10.8852
G1 X151.262 Y81.989 E10.97755
G1 X151.351 Y81.98 E10.98082
G1 X154.708 Y81.98 E11.10364
G1 X154.708 Y218.02 E16.08082
G1 X145.292 Y218.02 E16.42531
G1 X145.292 Y81.98 E21.40249
G1 X148.64 Y81.98 E21.52498
G0 F6000 X148.684 Y81.54
G1 F1200 X148.738 Y81.549 E21.52699
G1 X151.262 Y81.549 E21.61933
G1 X151.34 Y81.54 E21.6222
G1 X155.148 Y81.54 E21.76152
G1 X155.148 Y218.46 E26.7709
G1 X144.852 Y218.46 E27.14759
G1 X144.852 Y81.54 E32.15696
G1 X148.684 Y81.54 E32.29716
G0 F6000 X148.665 Y81.1
G1 F1200 X148.738 Y81.109 E32.29985
G1 X151.262 Y81.109 E32.3922
G1 X151.328 Y81.1 E32.39463
G1 X155.588 Y81.1 E32.55049
G1 X155.588 Y218.9 E37.59206
G1 X144.412 Y218.9 E38.00095
G1 X144.412 Y81.1 E43.04252
G1 X148.665 Y81.1 E43.19812
G0 F6000 X148.697 Y80.66
G1 F1200 X148.738 Y80.669 E43.19966
G1 X151.262 Y80.669 E43.292
G1 X151.313 Y80.66 E43.2939
G1 X156.028 Y80.66 E43.4664
G1 X156.028 Y219.34 E48.54017
G1 X143.972 Y219.34 E48.98125
G1 X143.972 Y80.66 E54.05502
G1 X148.697 Y80.66 E54.22789
G0 F6000 X148.738 Y80.229
G1 F1200 X151.262 Y80.229 E54.32023
G1 X151.284 Y80.22 E54.3211
G1 X156.468 Y80.22 E54.51076
G1 X156.468 Y219.78 E59.61672
G1 X143.532 Y219.78 E60.09
G1 X143.532 Y80.22 E65.19597
G1 X148.716 Y80.22 E65.38563
G1 X148.738 Y80.229 E65.3865
G1 F1500 E63.3865
G1 F300 Z0.4
G0 F6000 X149.371 Y105.945 Z0.4
G1 F300 Z0.2
G1 F1500 E65.3865
G1 F1200 X149.085 Y106.016 E65.39728
G1 X147.952 Y106.386 E65.44089
G1 X147.589 Y106.547 E65.45541
G1 X147.265 Y106.777 E65.46995
G1 X146.993 Y107.067 E65.4845
G1 X146.832 Y107.314 E65.49528
G1 X146.277 Y108.324 E65.53745
G1 X146.121 Y108.69 E65.552
G1 X146.067 Y108.906 E65.56015
G1 X145.964 Y109.445 E65.58023
G1 X145.929 Y109.817 E65.5939
G1 X145.929 Y111.217 E65.64512
G1 X145.969 Y111.612 E65.65964
G1 X146.087 Y111.992 E65.6742
G1 X146.296 Y112.366 E65.68988
G1 X146.551 Y112.724 E65.70596
G1 X146.813 Y113.023 E65.7205
G1 X147.13 Y113.263 E65.73505
G1 X147.519 Y113.447 E65.75079
G1 X148.856 Y113.908 E65.80253
G1 X149.233 Y113.998 E65.81671
G1 X149.629 Y114.052 E65.83134
G1 X149.897 Y114.07 E65.84116
G1 X150.611 Y114.07 E65.86729
G1 X151.006 Y114.03 E65.88181
G1 X151.386 Y113.912 E65.89637
G1 X151.665 Y113.766 E65.90789
G1 X152.742 Y113.089 E65.95443
G1 X153.055 Y112.845 E65.96895
G1 X153.314 Y112.543 E65.98351
G1 X153.529 Y112.143 E66.00012
G1 X153.932 Y111.127 E66.04011
G1 X154.04 Y110.745 E66.05463
G1 X154.071 Y110.397 E66.06742
G1 X154.071 Y108.845 E66.1242
G1 X154.031 Y108.45 E66.13872
G1 X153.913 Y108.07 E66.15328
G1 X153.728 Y107.731 E66.16741
G1 X153.481 Y107.368 E66.18347
G1 X153.226 Y107.064 E66.19799
G1 X152.914 Y106.816 E66.21257
G1 X152.571 Y106.64 E66.22668
G1 X151.154 Y106.081 E66.28241
G1 X150.771 Y105.973 E66.29697
G1 X150.495 Y105.944 E66.30712
G1 X149.768 Y105.919 E66.33373
G1 X149.371 Y105.945 E66.34829
G0 F6000 X149.404 Y106.387
G1 F1200 X149.222 Y106.434 E66.35517
G1 X148.089 Y106.804 E66.39877
G1 X147.77 Y106.95 E66.41161
G1 X147.493 Y107.164 E66.42442
G1 X147.217 Y107.526 E66.44107
G1 X146.662 Y108.536 E66.48323
G1 X146.499 Y108.989 E66.50085
G1 X146.396 Y109.528 E66.52092
G1 X146.369 Y109.817 E66.53154
G1 X146.369 Y111.217 E66.58276
G1 X146.409 Y111.565 E66.59558
G1 X146.526 Y111.895 E66.60839
G1 X146.655 Y112.11 E66.61756
G1 X146.91 Y112.468 E66.63364
G1 X147.144 Y112.729 E66.64647
G1 X147.431 Y112.93 E66.65929
G1 X147.662 Y113.031 E66.66851
G1 X148.999 Y113.492 E66.72025
G1 X149.293 Y113.562 E66.73131
G1 X149.689 Y113.616 E66.74593
G1 X149.897 Y113.63 E66.75356
G1 X150.611 Y113.63 E66.77968
G1 X150.959 Y113.59 E66.7925
G1 X151.431 Y113.394 E66.8112
G1 X152.508 Y112.717 E66.85774
G1 X152.781 Y112.498 E66.87054
G1 X152.998 Y112.223 E66.88336
G1 X153.12 Y111.981 E66.89327
G1 X153.523 Y110.965 E66.93326
G1 X153.614 Y110.626 E66.94611
G1 X153.631 Y110.397 E66.95451
G1 X153.631 Y108.845 E67.01129
G1 X153.591 Y108.497 E67.0241
G1 X153.474 Y108.167 E67.03691
G1 X153.364 Y107.979 E67.04488
G1 X153.117 Y107.616 E67.06095
G1 X152.888 Y107.35 E67.07379
G1 X152.605 Y107.143 E67.08662
G1 X152.409 Y107.049 E67.09457
G1 X150.992 Y106.49 E67.1503
G1 X150.48 Y106.384 E67.16943
G1 X149.753 Y106.359 E67.19604
G1 X149.404 Y106.387 E67.20885
G0 F6000 X149.738 Y106.799
G1 F1200 X149.359 Y106.852 E67.22285
G1 X148.226 Y107.222 E67.26646
G1 X147.959 Y107.351 E67.27731
G1 X147.737 Y107.547 E67.28814
G1 X147.603 Y107.738 E67.29668
G1 X147.048 Y108.748 E67.33884
G1 X146.932 Y109.072 E67.35143
G1 X146.829 Y109.611 E67.37151
G1 X146.809 Y109.817 E67.37908
G1 X146.809 Y111.217 E67.4303
G1 X146.849 Y111.51 E67.44112
G1 X147.013 Y111.855 E67.4551
G1 X147.268 Y112.213 E67.47118
G1 X147.471 Y112.429 E67.48202
G1 X147.805 Y112.615 E67.49601
G1 X149.142 Y113.076 E67.54775
G1 X149.352 Y113.126 E67.55565
G1 X149.748 Y113.18 E67.57027
G1 X149.897 Y113.19 E67.57574
G1 X150.611 Y113.19 E67.60186
G1 X150.904 Y113.15 E67.61268
G1 X151.196 Y113.021 E67.62436
G1 X152.273 Y112.344 E67.6709
G1 X152.501 Y112.154 E67.68176
G1 X152.711 Y111.819 E67.69622
G1 X153.114 Y110.803 E67.73621
G1 X153.191 Y110.397 E67.75133
G1 X153.191 Y108.845 E67.80811
G1 X153.151 Y108.552 E67.81893
G1 X153 Y108.226 E67.83208
G1 X152.753 Y107.863 E67.84814
G1 X152.556 Y107.643 E67.85894
G1 X152.248 Y107.459 E67.87207
G1 X150.831 Y106.9 E67.9278
G1 X150.465 Y106.824 E67.94148
G1 X149.738 Y106.799 E67.96809
G0 F6000 X149.723 Y107.238
G1 F1200 X149.495 Y107.271 E67.97652
G1 X148.362 Y107.641 E68.02013
G1 X148.16 Y107.748 E68.02849
G1 X147.989 Y107.95 E68.03817
G1 X147.434 Y108.96 E68.08034
G1 X147.364 Y109.154 E68.08788
G1 X147.261 Y109.693 E68.10796
G1 X147.249 Y109.817 E68.11252
G1 X147.249 Y111.217 E68.16374
G1 X147.289 Y111.442 E68.1721
G1 X147.371 Y111.6 E68.17861
G1 X147.626 Y111.958 E68.19469
G1 X147.79 Y112.118 E68.20307
G1 X147.949 Y112.199 E68.2096
G1 X149.286 Y112.66 E68.26134
G1 X149.412 Y112.69 E68.26608
G1 X149.808 Y112.744 E68.2807
G1 X149.897 Y112.75 E68.28397
G1 X150.611 Y112.75 E68.31009
G1 X150.962 Y112.649 E68.32345
G1 X152.039 Y111.972 E68.37
G1 X152.209 Y111.818 E68.37839
G1 X152.302 Y111.656 E68.38522
G1 X152.705 Y110.64 E68.42521
G1 X152.751 Y110.397 E68.43426
G1 X152.751 Y108.845 E68.49104
G1 X152.711 Y108.62 E68.4994
G1 X152.637 Y108.474 E68.50539
G1 X152.39 Y108.111 E68.52145
G1 X152.23 Y107.947 E68.52984
G1 X152.086 Y107.868 E68.53585
G1 X150.669 Y107.309 E68.59158
G1 X150.45 Y107.263 E68.59976
G1 X149.723 Y107.238 E68.62638
G1 F1500 E66.62638
G1 F300 Z0.4
G0 F6000 X145.732 Y112.237 Z0.4
G1 F300 Z0.2
G1 F1500 E68.62638
G1 F1200 X145.938 Y112.621 E68.64232
G1 X146.193 Y112.979 E68.6584
G1 X146.479 Y113.312 E68.67446
G1 X146.821 Y113.588 E68.69054
G1 X147.375 Y113.863 E68.71317
G1 X148.712 Y114.324 E68.76491
G1 X149.174 Y114.434 E68.78229
G1 X149.57 Y114.488 E68.79691
G1 X149.897 Y114.51 E68.8089
G1 X150.611 Y114.51 E68.83502
G1 X151.049 Y114.47 E68.85111
G1 X151.472 Y114.352 E68.86718
G1 X151.899 Y114.139 E68.88464
G1 X152.976 Y113.462 E68.93118
G1 X153.325 Y113.195 E68.94726
G1 X153.621 Y112.87 E68.96334
G1 X153.938 Y112.305 E68.98704
G1 X154.268 Y111.473 E69.01979
G1 X154.268 Y188.33 E71.83169
G1 X154.089 Y187.928 E71.84779
G1 X153.835 Y187.561 E71.86412
G1 X153.074 Y186.652 E71.90749
G1 X152.762 Y186.342 E71.92358
G1 X152.399 Y186.093 E71.93969
G1 X151.983 Y185.909 E71.95633
G1 X151.221 Y185.655 E71.98572
G1 X150.732 Y185.547 E72.00404
G1 X150.27 Y185.494 E72.02105
G1 X149.716 Y185.494 E72.04132
G1 X148.844 Y185.595 E72.07344
G1 X148.413 Y185.685 E72.08955
G1 X147.933 Y185.891 E72.10866
G1 X147.552 Y186.106 E72.12466
G1 X147.19 Y186.356 E72.14076
G1 X146.829 Y186.731 E72.1598
G1 X146.002 Y187.797 E72.20916
G1 X145.765 Y188.167 E72.22524
G1 X145.732 Y188.248 E72.22844
G1 X145.732 Y112.237 E75.00939
G0 F6000 X146.172 Y113.623
G1 F1200 X146.509 Y113.907 E75.02551
G1 X146.92 Y114.15 E75.04298
G1 X147.232 Y114.279 E75.05533
G1 X148.569 Y114.74 E75.10707
G1 X149.115 Y114.87 E75.12761
G1 X149.511 Y114.924 E75.14223
G1 X149.897 Y114.95 E75.15638
G1 X150.611 Y114.95 E75.18251
G1 X151.087 Y114.91 E75.19998
G1 X151.55 Y114.791 E75.21747
G1 X152.133 Y114.511 E75.24114
G1 X153.21 Y113.834 E75.28768
G1 X153.592 Y113.547 E75.30516
G1 X153.828 Y113.298 E75.31771
G1 X153.828 Y186.867 E78.00932
G1 X153.411 Y186.369 E78.03308
G1 X153.075 Y186.03 E78.05054
G1 X152.686 Y185.751 E78.06806
G1 X152.122 Y185.492 E78.09076
G1 X151.36 Y185.238 E78.12015
G1 X150.782 Y185.11 E78.14181
G1 X150.32 Y185.057 E78.15882
G1 X149.665 Y185.057 E78.18279
G1 X148.793 Y185.158 E78.2149
G1 X148.324 Y185.252 E78.2324
G1 X147.716 Y185.508 E78.25654
G1 X147.335 Y185.723 E78.27254
G1 X146.94 Y185.992 E78.29003
G1 X146.481 Y186.461 E78.31404
G1 X146.172 Y186.859 E78.33247
G1 X146.172 Y113.623 E81.0119
G0 F6000 X146.612 Y114.486
G1 F1200 X146.627 Y114.495 E81.01254
G1 X147.088 Y114.695 E81.03092
G1 X148.425 Y115.156 E81.08266
G1 X149.055 Y115.306 E81.10636
G1 X149.451 Y115.36 E81.12098
G1 X149.897 Y115.39 E81.13733
G1 X150.611 Y115.39 E81.16346
G1 X151.123 Y115.35 E81.18224
G1 X151.622 Y115.231 E81.20101
G1 X152.097 Y115.036 E81.2198
G1 X152.367 Y114.884 E81.23113
G1 X153.388 Y114.242 E81.27526
G1 X153.388 Y185.719 E83.89033
G1 X152.977 Y185.413 E83.90908
G1 X152.523 Y185.174 E83.92785
G1 X152.262 Y185.074 E83.93807
G1 X151.5 Y184.82 E83.96746
G1 X150.832 Y184.673 E83.99248
G1 X150.37 Y184.62 E84.0095
G1 X149.614 Y184.62 E84.03716
G1 X148.742 Y184.721 E84.06927
G1 X148.238 Y184.819 E84.08806
G1 X147.756 Y184.995 E84.10683
G1 X147.5 Y185.125 E84.11733
G1 X147.119 Y185.34 E84.13334
G1 X146.693 Y185.626 E84.15211
G1 X146.612 Y185.701 E84.15615
G1 X146.612 Y114.486 E86.76163
G0 F6000 X147.052 Y115.148
G1 F1200 X148.282 Y115.572 E86.80923
G1 X148.996 Y115.742 E86.83609
G1 X149.392 Y115.796 E86.85071
G1 X149.897 Y115.83 E86.86923
G1 X150.611 Y115.83 E86.89535
G1 X151.156 Y115.79 E86.91534
G1 X151.69 Y115.671 E86.93536
G1 X152.2 Y115.476 E86.95533
G1 X152.601 Y115.256 E86.97207
G1 X152.948 Y115.038 E86.98706
G1 X152.948 Y184.899 E89.54301
G1 X152.794 Y184.813 E89.54946
G1 X152.401 Y184.657 E89.56493
G1 X151.639 Y184.403 E89.59432
G1 X150.882 Y184.235 E89.62269
G1 X150.42 Y184.182 E89.6397
G1 X149.874 Y184.16 E89.65969
G1 X149.564 Y184.183 E89.67106
G1 X148.692 Y184.284 E89.70318
G1 X148.155 Y184.386 E89.72318
G1 X147.638 Y184.566 E89.74321
G1 X147.284 Y184.742 E89.75767
G1 X147.052 Y184.873 E89.76742
G1 X147.052 Y115.148 E92.31839
G0 F6000 X147.492 Y115.765
G1 F1200 X148.138 Y115.988 E92.34339
G1 X148.936 Y116.178 E92.3734
G1 X149.332 Y116.232 E92.38803
G1 X149.897 Y116.27 E92.40874
G1 X150.611 Y116.27 E92.43487
G1 X151.188 Y116.23 E92.45603
G1 X151.753 Y116.111 E92.47715
G1 X152.297 Y115.915 E92.49831
G1 X152.508 Y115.803 E92.50705
G1 X152.508 Y184.229 E95.01049
G1 X151.778 Y183.986 E95.03864
G1 X150.932 Y183.798 E95.07035
G1 X150.47 Y183.745 E95.08736
G1 X149.893 Y183.719 E95.10849
G1 X149.513 Y183.746 E95.12243
G1 X148.641 Y183.847 E95.15455
G1 X148.073 Y183.953 E95.17569
G1 X147.525 Y184.136 E95.19682
G1 X147.492 Y184.152 E95.19816
G1 X147.492 Y115.765 E97.70018
G1 F1500 E95.70018
G1 F300 Z0.4
G0 F6000 X149.766 Y185.931 Z0.4
G1 F300 Z0.2
G1 F1500 E97.70018
G1 F1200 X148.894 Y186.032 E97.7323
G1 X148.506 Y186.117 E97.74683
G1 X148.149 Y186.275 E97.76111
G1 X147.768 Y186.49 E97.77712
G1 X147.443 Y186.719 E97.79166
G1 X147.177 Y187 E97.80582
G1 X146.35 Y188.066 E97.85518
G1 X146.139 Y188.403 E97.86973
G1 X145.999 Y188.776 E97.88431
G1 X145.934 Y189.28 E97.9029
G1 X145.934 Y189.76 E97.92046
G1 X145.929 Y189.812 E97.92237
G1 X145.929 Y190.1 E97.93291
G1 X145.936 Y190.272 E97.9392
G1 X146.006 Y191.074 E97.96866
G1 X146.081 Y191.465 E97.98322
G1 X146.231 Y191.833 E97.99776
G1 X146.538 Y192.26 E98.017
G1 X147.576 Y193.362 E98.07239
G1 X147.876 Y193.622 E98.08692
G1 X148.222 Y193.817 E98.10145
G1 X148.6 Y193.94 E98.11599
G1 X148.821 Y193.974 E98.12417
G1 X149.704 Y194.062 E98.15664
G1 X149.9 Y194.072 E98.16382
G1 X150.292 Y194.072 E98.17816
G1 X150.822 Y194 E98.19773
G1 X151.711 Y193.753 E98.23148
G1 X152.081 Y193.608 E98.24602
G1 X152.415 Y193.393 E98.26056
G1 X152.711 Y193.102 E98.27574
G1 X153.449 Y192.204 E98.31827
G1 X153.669 Y191.873 E98.33281
G1 X153.84 Y191.428 E98.35025
G1 X154.049 Y190.593 E98.38174
G1 X154.106 Y190.199 E98.39631
G1 X154.086 Y189.82 E98.41019
G1 X153.937 Y188.822 E98.44711
